X:1
T:Mepisto Waltz No. 2
T:Mephisto Waltz No. 2
T:Franz Liszt
T:Arranged for 2 pianos by the composer
C:Franz Liszt
%%score { ( 1 3 ) | ( 2 4 ) } { ( 5 7 10 11 ) | ( 6 8 9 ) }
L:1/8
Q:1/4=176
M:6/8
K:C
V:1 treble nm="Piano I" snm="Pno. I"
V:3 treble 
V:2 treble 
V:4 treble 
V:5 treble nm="Piano II" snm="Pno. II"
V:7 treble 
V:10 treble 
V:11 treble 
V:6 treble 
V:8 treble 
V:9 treble 
V:1
"^Allegro vivace" z6 | z6 | !^!F6- | F z z z2 z | z2 z!p! .B2 z | .f2 z[Q:1/4=144] .[Bb]2 z | %6
 .[ff']2 z z2 z |[Q:1/4=176] z6 | !^!^F6- | F z z z2 z | z2 z!p! .B2 z | %11
 .^f2 z[Q:1/4=140] .[Bb]2 z | .[^f^f']2 z z2 z |[Q:1/4=176] z6 ||[K:E] z6 | %15
!p! A,/B,/C/D/F/ z/ z2 z | z6 | D/F/A/B/c/ z/ z2 z | z6 | A/B/c/d/f/ z/ z2 z | %20
 d/f/a/b/c'/ z/ [ac']/[bd']/ z z |"_cresc." d/f/a/b/=c'/ z/ [ac']/[bd']/ z z | %22
 d/f/a/b/^c'/ z/ [ac']/[bd']/ z z | d/f/a/b/=c'/ z/ [ac']/[bd']/ z z | %24
 d/f/a/b/=c'/ z/ [ac']/[f_e']/ z z | [a=c']/[f_e']/ z z[Q:1/4=140] [ac']/[fe']/[Q:1/4=100] z z || %26
[K:Eb]!ff![Q:1/4=176]!8va(! c'/d'/e'/f'/g'/ z/ !^!g'3 | c'/d'/e'/f'/g'/ z/ !^!b'3 | %28
 g'/f'/e'/d'/c'/b/ !>!c'/b/=a/b/a/b/ | g'/f'/e'/d'/c'/b/ !>!c'/b/=a/b/a/b/ | %30
!ff! c'/d'/e'/f'/g'/ z/ !^!g'3 | c'/d'/e'/f'/g'/ z/ !^!b'3 | g'/f'/e'/d'/c'/b/ !>!c'/b/=a/b/a/b/ | %33
 g'/f'/e'/d'/c'/b/ !>!c'/b/=a/b/a/b/ | d'/c'/b/_a/.c' d'/c'/b/=a/.c' | %35
 d'/c'/b/=a/.b d'/c'/b/a/.c' | d'/c'/b/_a/.c' d'/c'/b/=a/.c' | d'/c'/b/=a/.b d'/c'/b/a/.c' | %38
 .[=ae']z.[ae'] .[ad']z.[ad'] | .[=a_d']z.[ad'] .[ac']z.[ac']!8va)! | .[^f=b]z.[fb] .[f_b]z.[fb] | %41
 .[^f=b]z.[fb] .[f_b]z.f | .[=Ae]z.[Ae] .[Ad]z.[Ad] | .[=A^c]z.[Ac] .[A=c]z.[Ac] | %44
 .[^F=B]z.[FB] .[F_B]z.[FB] | .[^F=B]z.[FB] .[F_B] z2 | z6 | z6 | z!p! [_d_f][df] ([df].[ce])[ce] | %49
 ([_d_f].[ce])[ce] ([df].[ce])[ce] | z [_gb][gb] ([gb].[=fa])[fa] | %51
 ([_gb].[fa])[fa] ([gb][fa])[fa] | z!8va(! [_d'_f'][d'f'] ([d'f'].[c'e'])[c'e'] | %53
 ([_d'_f'].[c'e'])[c'e'] ([d'f'].[c'e'])[c'e'] | z2 .[=f=bd'] .[fbd']z.[g^c'=e'] | %55
 .[g^c'=e']z.[_ad'f'] .[ad'f']z.[g^c'=e'] | .[g^c'=e']z.[ad'f'] .[ad'f']z.[be'g'] | %57
 .[b=e'g']z.[_c'f'a'] .[c'f'a']z.[be'g'] | .[b=e'g']z"_cresc.".[=bf'a'] .[bf'a']z.[^c'g'b'] | %59
 [^c'g'b']z[d'a'=b'] [d'a'b']z[^c'g'] | [^c'g']z[d'a'] [d'a']z[=e'b'] | %61
 [=e'b']z[f'=b'] [f'b'] z z |!ff! =c''/d''/_e''/f''/.g''/ z/ !^![g'g'']3 | %63
 c'/d'/e'/f'/g'/ z/ !^!b'3 | g'/f'/e'/d'/c'/b/ c'/b/=a/b/a/b/ | %65
 g'/f'/e'/d'/c'/b/ c'/b/=a/b/e'/g'/ |!ff! =c''/d''/_e''/f''/.g''/ z/ !^![g'g'']3 | %67
 c'/d'/e'/f'/g'/ z/ !^!b'3 | g'/f'/e'/d'/c'/b/ c'/b/=a/b/a/b/ | %69
 g'/f'/e'/d'/c'/b/ c'/b/=a/b/e'/g'/ | [d'd'']/c''/b'/_a'/c'' [d'd'']/c''/b'/=a'/c'' | %71
 [d'd'']/c''/b'/=a'/b' [d'd'']/c''/b'/a'/c'' | [d'd'']/c''/b'/_a'/c'' [d'd'']/c''/b'/=a'/c'' | %73
 [d'd'']/c''/b'/=a'/b' [d'd'']/c''/b'/a'/c'' | [e'=a'e'']z[e'a'e''] [d'a'd'']z[d'a'd''] | %75
 [_d'=a'_d'']z[d'a'd''] [c'a'c'']z[c'a'c''] | [=b^f'=b']z[bf'b'] [_bf'_b']z[bf'b'] | %77
 [=b^f'=b']z[bf'b'] [_bf'_b']z[^f^f'] | [_e=a_e']z[eae'] [dad']z[dad'] | %79
 [_d=a_d']z[dad'] [cac']z[cac']!8va)! | [=B^f=b]z[Bfb] [_Bf_b]z[Bfb] | [=B^f=b]z[Bfb] [_Bf_b] z z | %82
 z6 | z6 | z6 | z6 | z6 | z6 | z6[Q:1/4=168] |[Q:1/4=160] z6[Q:1/4=152] | %90
!p![Q:1/4=140]!8va(! a'/g'/f'/b/c'/b/ a'/g'/f'/b/c'/b/ | g'/f'/e'/b/c'/b/ g'/f'/e'/b/c'/b/ | %92
 a'/g'/f'/b/c'/b/ a'/g'/f'/b/c'/b/ | g'/f'/e'/b/c'/b/ _g'/f'/e'/b/g'/=b/ | %94
 =a'/^g'/^f'/=b/^c'/b/ a'/g'/f'/b/c'/b/ | ^g'/^f'/=e'/=b/^c'/b/ g'/f'/e'/b/c'/b/ | %96
 =a'/^g'/^f'/=b/^c'/b/ a'/g'/f'/b/c'/b/ | ^g'/^f'/=e'/"_cresc."=b/^c'/b/ =g'/f'/e'/b/g'/=c'/ | %98
 _b'/=a'/g'/c'/g'/a'/ b'/a'/g'/c'/g'/a'/ | b'/g'/f'/d'/f'/=a'/ b'/g'/f'/[Q:1/4=100]_d'/f'/b'/ || %100
[K:C][Q:1/4=140] b'/^a'/^g'/^c'/g'/a'/ b'/a'/g'/c'/g'/a'/ | %101
 b'/^g'/^f'/^d'/f'/a'/ b'/g'/f'/[Q:1/4=100]d'/f'/b'/ | %102
!ff![Q:1/4=140] b'/^c''/^d''/^e''/^f''/ z/ !^![^f'^f'']3 | %103
 b'/^d''/=e''/^f''/^g''/ z/ !^![^g'^g'']3 | %104
 [_a'_a'']/=g''/=f''/=e''/f''/=d''/ [a'a'']/g''/f''/e''/f''/d''/ | %105
 [_a'_a'']/g''/f''/e''/f''/d''/ [a'a'']/g''/f''/e''/f''/d''/ | %106
!ff! b'/^c''/^d''/^e''/^f''/ z/ !^![^f'^f'']3 | b'/^d''/=e''/^f''/^g''/ z/ !^![^g'^g'']3 | %108
 [_a'_a'']/=g''/=f''/=e''/f''/=d''/ [a'a'']/g''/f''/e''/f''/d''/ | %109
 [_a'_a'']/g''/f''/e''/f''/d''/ [a'a'']/g''/f''/[Q:1/4=100]e''/f''/d''/ || %110
[K:Eb][Q:1/4=140] [g'g'']/f''/e''/d''/e''/b'/ [g'g'']/f''/e''/d''/e''/b'/ | %111
 [c'c'']/b'/a'/g'/a'/f'/ [c'c'']/b'/a'/g'/a'/f'/ | g'/f'/e'/d'/e'/b/ g'/f'/e'/d'/e'/b/!8va)! | %113
 c'/b/a/g/a/f/ c'/b/a/g/a/f/ | %114
"_dim." g/f/e/d/[I:staff +1]e/B/[I:staff -1] g/f/e/d/[I:staff +1]e/B/ | %115
[I:staff -1] c/B/A/G/[I:staff +1]A/F/[I:staff -1] c/B/A/G/[I:staff +1]A/F/ | %116
[I:staff -1] g/f/e/d/[I:staff +1]e/B/[I:staff -1] g/f/e/d/[I:staff +1]e/B/ | %117
[I:staff -1] c/B/A/G/[I:staff +1]A/F/[I:staff -1] c/B/A/G/[I:staff +1]A/F/ | %118
[I:staff -1] .A.G.F[I:staff +1] .=E.F.D |[I:staff -1] .A.G.F[I:staff +1] .=E.F._D | %120
[I:staff -1] .A.G.F[I:staff +1] .=E.F.C |[I:staff -1] z6 |!p! !>!B,3 !>!A3 | !>!G3- G.F.E | %124
 !>!B,3 !>!A3 | !>!G3[Q:1/4=120] _G.E._D ||[K:C][Q:1/4=140] !>!=B,3 !>!A3 | !>!^G3- G.^F.E | %128
 !>!B,3 !>!A3 | !>!^G3 =G.E.=D | C3 _B3 | _B6 |!<(! ^C3 =B3!<)! |!mp! B6[Q:1/4=120] || %134
[K:E]!p![Q:1/4=140] C/D/E/F/G/ z/ G3 | C/D/E/F/G/ z/ B3 | G/F/E/D/C/B,/ z2 z | G/F/E/D/C/B,/ z2 z | %138
 c/d/e/f/g/ z/ g3 | c/d/e/f/g/ z/ b3 | g/f/e/d/c/B/ z2 z | g/f/e/d/c/B/ z2 z | %142
!p!!8va(! d'/c'/b/a/.c' d'/c'/b/^a/.c' | d'/c'/b/^a/.c' d'/c'/b/a/.c' | %144
 d'/c'/b/=a/.c' d'/c'/b/^a/.c' | d'/c'/b/^a/.c' e'/c'/b/a/c' || %146
[M:2/4] !arpeggio![=g^ae'] z !arpeggio![gad'] z | !arpeggio![f^a=d'] z !arpeggio![fac'] z | %148
 !arpeggio![e=g=c'] z !arpeggio![egb] z | !arpeggio![^d=g=c'] z !arpeggio![dgb]!8va)! z/ g/4f/4 | %150
 e z{/e} ^d z |{/d} =d z{/d} c z |{/c} =c z{/c} B z |{/c} =c z{/c} B z ||[K:C][M:6/8] z6 | z6 | %156
 z!p! [d=f][df] [df][^ce][ce] | [df][^ce][ce] [df][ce][ce] | z [gb][gb] [gb][^fa][fa] | %159
 [gb][^fa][fa] [gb][fa][fa] |!8va(! z [d'=f'][d'f'] [d'f'][^c'e'][c'e'] | %161
 [d'f'][^c'e'][c'e'] [d'f'][c'e'][c'e'] | z2 .[^f=c'_e'] .[fc'e']z.[^gd'=f'] | %163
 .[^gd'=f']z.[a_e'^f'] .[ae'f']z.[gd'=f'] | .[^gd'f']z.[a_e'^f'] .[ae'f']z.[b=f'^g'] | %165
 .[bf'^g']z.[c'^f'a'] .[c'f'a']z.[b=f'^g'] |"_cresc." .[f'^g']z.[c'^f'a'] .[c'f'a']z.[d'^g'b'] | %167
 .[d'^g'b']z.[_e'a'c''] .[e'a'c'']z.[d'^g'] | .[d'^g']z.[_e'a'] .[e'a']z.[=f'b'] | %169
 .[f'b']z.[^f'c''] .[f'c''] z z |!ff![Q:1/4=176] c''/d''/_e''/=f''/^f''/ z/ !^![^f'f'']3!8va)! | %171
 z6 |!8va(! c''/d''/_e''/=f''/^f''/ z/ !^![^f'f'']3!8va)! | z6 | %174
!ff! c/d/_e/=f/^f/ z/ !^![_B_e_b]3 |!8va(! c'/d'/_e'/=f'/^f'/ z/ !^![_b_e'_b']3 | %176
 c'/d'/_e'/=f'/^f'/ z/ !^![_b_e'_b']3!8va)! | !fermata!z6 || %178
[Q:1/4=120]"^Un poco moderato" z2 z!mf! _E2 F | ^F3 _B3- | B3 z2 z | z2 z!mp!!<(! _E2 =F | %182
 ^F3!<)!!mf! =B3- | B3 z2 z | z2 z!p!"_dolce con gracia" ^D2 =E | ^F3 E2 F | =G3 =c3- | c2 z G2 A | %188
 G3 c3- | c3 G3 | _e3!<(! =A2 _B | _e3 =A2 ^A!<)! ||[K:B]!mf!!>(! !>!^d6-!>)! |!p! d z .c.c z .G | %194
.G z .A.A z .G |.G z .A.A z .B |.B z .^B2 z .c |.c z !breath!z!p! e2 f ||[K:C] g3 c'3- | %199
 c'2 z g2 a | g3 c'3- | c'2 z g3 | _e'3!<(! =a2 _b | _e'3 =a2 ^a!<)! ||[K:B]!mf! !>!^d'6- | %205
 d' z!p! .c'.c' z .g |.g z .a.a z .g |.g z .a.a z .b |.b z .^b.b z .c' |.c' z z z2 z | %210
 z2 z!p! f2!>(! g | a3!>)!!pp! c'2 z | z2 z!p! f2!>(! g | a3!>)!!pp! ^^c'2 z | z2 z!<(! f3 | %215
 g3 ^^g3 | a3!<)!!mp! d'3- | d'6 | z6 | z6 | z6 | z6 |!p![Q:1/4=140] !arpeggio![fd']6- | %223
 [fd']3 f3 | =g6- | g3 b3 | [fd']6- | [fd']3 f3 | =g6- | g3 b3 | !arpeggio![fd']3 f3 | =g3 b3 | %232
 !arpeggio![fd']3 f3 | =g3 b3 | =c'3- c'2 (3b/c'/=d'/ |!<(! =c'2 b c'2 b | ^c'3- c'2 (3b/c'/^d'/ | %237
 c'2 b c'2 e'!<)! |!mp!!8va(! !arpeggio![bg']6- | [bg']3 b3 | =c'6- | c'3 e'3 | !arpeggio![bg']6- | %243
 [bg']3 b3 | =c'6- | c'3 e'3 | !arpeggio![bg']3!p! b3 | =c'3 e'3 | !arpeggio![bg']3 b3 | =c'3 e'3 | %250
!<(! =f'3- f'2 (3e'/f'/=g'/ | =f'2 e' f'2 e' | ^f'3- f'2 (3e'/f'/^g'/ | f'2 e' d'2 z!<)! | %254
!mp! !arpeggio![^c'g']6 | =a'6- | a'3 ^e'3 | =d'3 c'3 | =c'3 (5:3:5bc'b=ab |{/=d'} =c'3 b3 | %260
 ^c'3 (5:3:5bc'b=ab |{/=d'} c'3 b3!8va)! |!8va(! [^c'g']6 | =a'6- | a'3 ^e'3 | =d'3 c'3 | %266
 =c'3 (5:3:5bc'b=ab |{/=d'} =c'3 b3 | ^c'3 (5:3:5bc'b=ab |{/=d'} c'3 b3 | g'6 | =g'3 c'^d'c' | %272
 f'6 | =f'3 bc'b | e'6 | e'3 (5:3:5bc'b^ab | e'6 | e'3!8va)! (5:3:5bc'bab | e'3 e'2 c' | %279
 a3 d'2 c' | a3 a2 (3g/a/g/ | ^^f2 g/a/ g3 | e'3 e'2 c' | a3 d'2 c' | a3 a2 (3g/a/g/ | %285
 ^^f2 g/a/ g3 | a3 g/a/g/a/(3g/a/g/ | ^^f3 g/a/g/a/(3g/a/g/ | e3 ^f3 | =g3 ^g3 | z6 | =a6 | z6 | %293
 ^a6 | z6 | z6 | =a6 | !tenuto!^a6 |!p![Q:1/4=160] !arpeggio![fd'] d'/c'/b/g/ f z z | %299
 z ^E/F/B/c/ d d/f/b/c'/ | !arpeggio![=gd'] d'/c'/b/=g/ d z z | z D/=G/B/c/ d d/=g/b/c'/ | %302
 !arpeggio![fd'] d'/c'/b/g/ f z z | z ^E/F/B/c/ d d/f/b/c'/ | !arpeggio![=gd'] d'/c'/b/=g/ d z z | %305
 z D/=G/B/c/ d d/=g/b/c'/ |!8va(! d'/c'/d'/c'/d'/c'/d'/c'/d'/c'/d'/c'/ | %307
 d'/b/d'/b/d'/b/d'/b/d'/b/d'/b/ | d'/c'/d'/c'/d'/c'/d'/c'/d'/c'/d'/c'/ | %309
 d'/b/d'/b/d'/b/d'/b/d'/b/d'/b/!8va)! |[Q:1/4=130] z2 z!8va(! =c'2 (3b/c'/=d'/ | %311
 =c'2 b{/=d'} c'2 b | z2 z ^c'2 (3b/c'/^d'/ | c'2 b{/d'} c'2 e' | %314
[Q:1/4=160] !arpeggio![bg'] g'/f'/e'/c'/ b!8va)! z2 | z ^A/B/e/f/ g!8va(! g/b/e'/f'/ | %316
 [=c'g'] g'/f'/e'/^c'/ b!8va)! z2 | z G/=c/e/f/ g!8va(! g/=c'/e'/f'/ | %318
 [bg'] g'/f'/e'/c'/ b!8va)! z2 | z ^A/B/e/f/ g!8va(! g/b/e'/f'/ | %320
 [=c'g'] g'/f'/e'/^c'/ b!8va)! z2 | z G/=c/e/f/ g!8va(! g/=c'/e'/f'/ | %322
 g'/f'/g'/f'/g'/f'/g'/f'/g'/f'/g'/f'/ | g'/e'/g'/e'/g'/e'/g'/e'/g'/e'/g'/e'/ | %324
 g'/f'/g'/f'/g'/f'/g'/f'/g'/f'/g'/f'/ | g'/e'/g'/e'/g'/e'/g'/e'/g'/e'/g'/e'/ | %326
[Q:1/4=140] z2 z !>!=f'2 (3e'/f'/=g'/ | =f'2 e'{/g'} f'2 e' | z2 z !>!^f'2 (3e'/f'/^g'/ | %329
 f'2 e' d'2 z |!p![Q:1/4=160]!<(! !>![c'g']6!<)! |!mp! [c'=a']6 | %332
[Q:1/4=130]"_un poco appassionato"!mp! !arpeggio![=d'=a']3 =f'3 |!>(! =d'3!>)!!p! ^c'3!8va)! | %334
!p![Q:1/4=150]!8va(! !>!=c'3 (5:3:5bc'b=ab |{/=d'} =c'3 b2 z | !>!^c'3 (5:3:5bc'b=ab | %337
{/=d'} c'3 b2 z | [c'g']6 | [c'=a']6 | !arpeggio![=d'=a']3 =f'3 |!>(! =d'3 ^c'3!>)! | %342
[K:B]!p![Q:1/4=155] !>!=c'3 (5:3:5bc'b=ab |{/=d'} =c'3 b2 z | !>!^c'3 (5:3:5bc'b=ab | %345
{/=d'} c'3 b2 z ||[K:C] [d'a']6 | [d'_b']6 | !arpeggio![_e'_b']3 _g'3 | _e'3 d'3 | %350
!mf![Q:1/4=160] _d'3 (5:3:5c'd'c'_bc' |{/_e'} _d'3 c'2 z | =d'3 (5:3:5c'd'c'_bc' | %353
{/_e'} d'3 c'2 z | [d'a']6 | [d'_b']6 | !arpeggio![_e'_b']3 _g'3 | _e'3 d'3 | %358
!mf![Q:1/4=165] _d'3 (5:3:5c'd'c'_bc' |{/_e'} _d'3 c'2 z | =d'3 (5:3:5c'd'c'_bc' | %361
{/_e'} d'3 c'2!mf! z |"_cresc." [_e'_b']3- [e'b'][e'g'][e'b'] | %363
 [_e'_c'']3- [e'c''][e'_d''][e'_e''] | [_e'_b']3 [e'_c''][e'_d''][e'_e''] | %365
 [_e'_b']3 [e'_c''][e'_d''][e'_e''] | [=e'=b']3- [e'b'][e'^g'][e'b'] | %367
[Q:1/4=170] [e'=c'']3- [e'c''][e'=d''][e'e''] | [e'b']3 [e'c''][e'd''][e'e''] | %369
 [e'b']3 [e'c''][e'd''][e'e''] |!ff![Q:1/4=176]"^Tempo I" [f'c'']/!ff!d''/e''/.f''/ z !^![f'f'']3 | %371
 [f'c'']/d''/e''/.f''/ z !^![f'f'']3 | [aa']/g'/f'/g'/.[aa'] [aa']/g'/f'/g'/.[aa'] | %373
 [aa']/g'/f'/g'/.[aa'] [aa']/g'/f'/g'/.[aa'] | [f'c'']/d''/e''/.f''/ z !^![f'f'']3 | %375
 [f'c'']/d''/e''/.f''/ z !^![f'f'']3 | [aa']/g'/f'/g'/.[aa'] [aa']/g'/f'/g'/.[aa'] | %377
 [aa']/g'/f'/g'/.[aa'] [aa']/g'/f'/g'/.[aa'] | [f'c'']/d''/e''/.f''/ z [aa']/g'/f'/g'/.[aa'] | %379
 [_b_b']/a'/g'/a'/.[bb'] [bb']/a'/g'/a'/.[bb'] | %380
 [c'c'']/_b'/a'/b'/.[c'c''] [c'c'']/b'/a'/b'/.[c'c''] | %381
 [c'c'']/_b'/a'/b'/.[c'c''] [_d'_d'']/c''/b'/c''/.[d'd''] || %382
[K:Eb] [_g'_d'']/e''/f''/._g''/ z !^![g'g'']3 | [_g'_d'']/e''/f''/._g''/ z !^![g'g'']3 | %384
 [bb']/a'/_g'/a'/.[bb'] [bb']/a'/g'/a'/.[bb'] | [bb']/a'/_g'/a'/.[bb'] [bb']/a'/g'/a'/.[bb'] | %386
 [_g'_d'']/e''/f''/._g''/ z !^![g'g'']3 | [_g'_d'']/e''/f''/._g''/ z !^![g'g'']3 | %388
 [bb']/a'/_g'/a'/.[bb'] [bb']/a'/g'/a'/.[bb'] | [bb']/a'/_g'/a'/.[bb'] [bb']/a'/g'/a'/.[bb'] | %390
 [_g'_d'']/e''/f''/._g''/ z [bb']/a'/g'/a'/.b' | %391
 [_c'_c'']/b'/a'/b'/.[c'c''] [c'c'']/b'/a'/b'/.[c'c''] | %392
 [_d'_d'']/_c''/b'/c''/.[d'd''] [d'd'']/c''/b'/c''/.[d'd''] | %393
 [_d'_d'']/_c''/b'/c''/.[d'd''] [=d'=d'']/_d''/c''/d''/[=d'=d''] | %394
!fff! [_g'_g'']/f''/e''/_d''/e''/d''/ [g'g'']/f''/e''/d''/e''/d''/ | %395
 [_g'_g'']/f''/e''/_d''/e''/d''/ [g'g'']/f''/e''/d''/e''/d''/ | %396
 [_g'_g'']/f''/e''/_d''/e''/d''/ [g'g'']/f''/e''/d''/e''/d''/ | %397
 [_g'_g'']/f''/e''/_d''/e''/d''/ [g'g'']/f''/e''/d''/e''/d''/ | %398
 e''/_d''/b'/=a'/b'/a'/ e''/d''/b'/a'/b'/a'/ |"_dim." b'/=a'/_g'/f'/g'/f'/ b'/a'/g'/f'/g'/f'/ | %400
 _a'/_g'/e'/_d'/e'/d'/ a'/g'/e'/d'/e'/d'/ | e'/_d'/b/=a/b/a/ e'/d'/b/a/b/a/ | %402
 e'/_d'/b/=a/ z e'/_d'/b/a/ z!8va)! | b/=a/_g/f/ z b/a/g/f/ z | _a/_g/e/_d/ z z2 z | %405
 a/_g/e/!p!_d/ z !fermata!z2 z | z6 | z6 | z!p! [_d_f][df] ([df].[ce])[ce] | %409
 ([_d_f].[ce])[ce] ([df].[ce])[ce] | z [_gb][gb] ([gb].[fa])[fa] | %411
 ([_gb].[fa])[fa] ([gb].[fa])[fa] |!8va(! z [_d'_f'][d'f'] ([d'f'].[c'e'])[c'e'] | %413
 ([_d'_f'].[c'e'])[c'e'] ([d'f'].[c'e'])[c'e'] | z2!p! .[f=bd'] .[fbd']z.[g^c'=e'] | %415
 .[g^c'=e']z.[_ad'f'] .[ad'f']z.[gc'e'] | .[g^c'=e']z.[ad'f'] .[ad'f']z.[be'g'] | %417
 .[b=e'g']z.[_c'f'a'] .[c'f'a']z.[be'g'] |"_cresc." .[b=e'g']z.[=bf'a'] .[bf'a']z.[^c'g'_b'] | %419
 .[^c'g'b']z.[d'a'=b'] .[d'a'b']z.[^c'g'] | .[^c'g']z.[d'a'] .[d'a']z.[=e'b'] | %421
 .[=e'b']z.[f'=b'] .[f'b'] z z |!ff! c''/d''/e''/f''/g''/ z/ !^![g'g'']3 | %423
 c'/d'/e'/f'/g'/ z/ !^!b'3 | g'/f'/e'/d'/c'/b/ c'/b/=a/b/a/b/ | %425
 g'/f'/e'/d'/c'/b/ c'/b/=a/b/e'/g'/ | c''/d''/e''/f''/g''/ z/ !^![g'g'']3 | %427
 c'/d'/e'/f'/g'/ z/ !^!b'3 | g'/f'/e'/d'/c'/b/ c'/b/=a/b/a/b/ | %429
 g'/f'/e'/d'/c'/b/ c'/b/=a/b/e'/g'/ | [d'd'']/c''/b'/_a'/.c'' [d'd'']/c''/b'/=a'/.c'' | %431
 [d'd'']/c''/b'/=a'/.c'' [d'd'']/c''/b'/a'/.c'' | [d'd'']/c''/b'/_a'/.c'' [d'd'']/c''/b'/=a'/.c'' | %433
 [d'd'']/c''/b'/=a'/.c'' [d'd'']/c''/b'/a'/.c'' | [e'=a'e'']z[e'a'e''] [d'a'd'']z[d'a'd''] | %435
 [_d'=a'_d'']z[d'a'd''] [c'a'c'']z[c'a'c''] | [=b^f'=b']z[bf'b'] [_bf'_b']z[bf'b'] | %437
 [=b^f'=b']z[bf'b'] [_bf'_b']z[^f^f'] | [_e=a_e']z[eae'] [dad']z[dad'] | %439
 [_d=a_d']z[dad'] [cac']z[cac']!8va)! | [=B^f=b]z[Bfb] [_Bf_b]z[Bfb] | [=B^f=b]z[Bfb] [_Bf_b] z2 | %442
 z6 | z6 | z6 | z6 | z6 | z6 | z6[Q:1/4=168] |[Q:1/4=160] z6[Q:1/4=152] |!p![Q:1/4=140] B,3 A3 | %451
 G3- G.F.E | B,3 A3 | G3 _G.E._D | _C3 =A3 | ^G3- G.^F.=E | =B,3 =A3 | ^G3 =G.=E.=D | C3 _B3 | %459
 !>!B3- B.F._D | ^C3 =B3 | !>!=B3- B.^F.^D | ^D3 =B3 | !>!=B3- B.^F.^D | ^D3!<(! =B3- | %465
 B3 [_e=b]3!<)! |!mf! [=f_b]3!8va(! [aa']3 | [gg']3- [gg'].[ff'].[ee'] | [fb]3 [aa']3 | %469
 [gg']3 [_g_g'].[ee']._d' |"_cresc." [_g_c']3 [=a=a']3 | [^g^g']3- [^g^g'].[^f^f'].[=e=e'] | %472
 [^f=b]3 [=a=a']3 | [^g^g']3 .[=g=g'].[=e=e'].=d' | [g=c']3 [_b_b']3- | [bb']2 .[b_d'] .[bb']2 z | %476
[Q:1/4=152] [_a_d']3 !^![_c'_c'']3- |[Q:1/4=160] [c'c'']2 .[_c'e'] .[c'_c''] z z || %478
[K:C][Q:1/4=176]!ff! d''/^c''/^d''/^e''/^f''/ z/ !^![^f'^f'']3 | %479
 b'/^d''/=e''/^f''/^g''/ z/ !^![^g'^g'']3 | %480
 [_a'_a'']/=g''/=f''/=e''/f''/=d''/ [a'a'']/g''/f''/e''/f''/d''/ | %481
 [_a'_a'']/g''/f''/e''/f''/d''/ [a'a'']/g''/f''/e''/f''/d''/ | %482
!ff! d''/^c''/^d''/^e''/^f''/ z/ !^![^f'^f'']3 | b'/^d''/=e''/^f''/^g''/ z/ !^![^g'^g'']3 | %484
 [_a'_a'']/=g''/=f''/=e''/f''/=d''/ [a'a'']/g''/f''/e''/f''/d''/ | %485
 [_a'_a'']/g''/f''/e''/f''/d''/ [a'a'']/g''/f''/e''/f''/d''/ || %486
[K:Eb] [g'g'']/f''/e''/d''/e''/b'/ [g'g'']/f''/e''/d''/e''/b'/ | %487
 [c'c'']/b'/a'/g'/a'/f'/ [c'c'']/b'/a'/g'/a'/f'/ | g'/f'/e'/d'/e'/b/ g'/f'/e'/d'/e'/b/!8va)! | %489
 c'/b/a/g/a/f/ c'/b/a/g/a/f/ | g/f/e/d/[I:staff +1]e/B/[I:staff -1] g/f/e/d/[I:staff +1]e/B/ | %491
[I:staff -1] c/B/A/G/[I:staff +1]A/F/[I:staff -1] c/B/A/G/[I:staff +1]A/F/ | %492
[I:staff -1] g/f/e/d/[I:staff +1]e/B/[I:staff -1] g/f/e/d/[I:staff +1]e/B/ | %493
[I:staff -1] c/B/A/G/[I:staff +1]A/F/[I:staff -1] c/B/A/G/[I:staff +1]A/F/ | %494
[I:staff -1] .A.G.F[I:staff +1] .=E.F.D |[I:staff -1] .A.G.F[I:staff +1] .=E.F._D | %496
[I:staff -1] .A.G.F[I:staff +1] .=E.F.C |[I:staff -1] z6 | z2 z [Aa][Aa][Aa] | %499
 !wedge![ee']2 z [Aa][Aa][Aa] | !wedge![ee']2 z [Aa][Aa][Aa] | !wedge![ee']2 z [Aa][Aa][Aa] | %502
 !wedge![ee']2 z z z2 | z6 | .e.f.g .g.a.b |[Q:1/4=134]!<(! .b.c'.d'[Q:1/4=114] .e'.f'.g'!<)! | %506
!fff![Q:1/4=174]!8va(! [g'b'g'']6- | [g'b'g'']3 [be'g'b']3 | !^![_c'e'g'_c'']6- | %509
 [c'e'g'c'']3 [e'g'e'']3 | [g'b'g'']6- | [g'b'g'']3 [be'g'b']3 | !^![_c'e'g'_c'']6- | %513
 [c'e'g'c'']3 [e'g'e'']3 | [g'b'g'']3 [be'g'b']3 | [_c'e'g'_c'']3 [e'g'e'']3 | %516
 [g'b'g'']3 [be'g'b']3 | [_c'e'g'_c'']3 [e'g'e'']3 | [a'=c''a'']3 [c'e'c'']3 | %519
 [_d'f'_d'']3 [f'a'f'']3 | [a'=c''a'']3 [c'e'c'']3 | [_d'f'_d'']3 [f'a'f'']3 | %522
 [=a'^c''=a'']3 [^c'f'c'']3 | [=d'f'=d'']3 [f'=a'f'']3 | [=a'^c''=a'']3 [^c'f'c'']3 | %525
 [=d'f'=d'']3 [f'=a'f'']3 | _b/c'/d'/e'/f'/g'/_a'/b'/c''/d''/e''/f''/ | %527
 !^!g''/f''/e''/d''/c''/b'/a'/g'/f'/e'/d'/c'/ | _b/c'/d'/e'/f'/g'/_a'/b'/c''/d''/e''/f''/ | %529
 !^!g''/f''/e''/d''/c''/b'/a'/g'/f'/e'/d'/c'/ | _b/c'/d'/e'/f'/g'/_a'/b'/c''/d''/e''/f''/ | %531
 !^!g''/f''/e''/d''/c''/b'/ a'/b'/c''/d''/e''/f''/ | %532
 !^!g''/f''/e''/d''/c''/b'/ a'/b'/c''/d''/e''/f''/ | %533
 !^!g''/f''/e''/d''/c''/b'/ a'/b'/c''/d''/e''/f''/ | g''/f''/d''/b'/ z z2 z | %535
 g''/f''/d''/b'/!8va)! z z2 z |!8va(! =b'b'b'b'b'b' | =b'b'b'b'b'b' | !wedge!=b'2 z !wedge!f'2 z | %539
 !wedge!=b2 z !wedge!f2 z!8va)! | =bbbbbb | =bbbbbb | !wedge!=b2 z !wedge!f2 z | %543
 !wedge!=B2 z !wedge!F2 z | z2 z !wedge!F2 z | z2 z !wedge!F2 z | z6 | z6 | z6 | z6 | z6 | z6 |] %552
V:2
 z6 | z2 z!ff! B,/^C/D/E/.F/ !fermata!z/ |!ped! z6 | z2 z!p! .B,2 z | .F2!ped-up! z .B,2 z | %5
 .F2 z .B,2 z | .F2 z z2 z | z2 z!ff! B,/^C/D/E/^F/ !fermata!z/ |!ped! z6 | z2 z!p! .B,2 z | %10
 .^F2!ped-up! z .B,2 z | .^F2 z .B,2 z | .^F2 z z2 z | z2 z!p! B,/^C/^D/^F/ z || %14
[K:E] A,/B,/C/D/F/ z/ z2 z | z6 | D/F/A/B/c/ z/ z2 z | z6 | A/B/c/d/f/ z/ z2 z | z6 | %20
!ped! F/A/c/d/ z d/f/ z!ped-up! z |!ped! F/A/=c/d/ z d/f/ z!ped-up! z | %22
!ped! F/A/^c/d/ z d/f/ z!ped-up! z |!ped! F/A/=c/d/ z d/f/ z z | F/A/=c/d/ z F/A/B/=c/_e/ z/ | %25
 F/A/B/=c/_e/ z/ F/A/B/c/e/!ped-up! !fermata!z/ ||[K:Eb]!ped! c/d/e/f/g/ z/ !^!g3 | %27
 c/d/e/f/g/ z/ !^!b3!ped-up! |!ped! g/f/e/d/c/B/ !>!c/B/=A/B/A/B/ | %29
 g/f/e/d/c/B/ !>!c/B/=A/B/A/B/!ped-up! |!ped! c/d/e/f/g/ z/ !^!g3 | c/d/e/f/g/ z/ !^!b3!ped-up! | %32
!ped! g/f/e/d/c/B/ !>!c/B/=A/B/A/B/ | g/f/e/d/c/B/ !>!c/B/=A/B/A/B/!ped-up! | %34
!ped! d/c/d/c/!ped-up!.d d/c/d/c/.d |!ped! d/c/d/c/!ped-up!.d d/c/d/c/.d | %36
!ped! d/c/d/c/!ped-up!.d d/c/d/c/.d | d/c/d/c/.d d/c/d/c/.d | %38
!ped! .[=Ae]z.[Ae] .[Ad]z!ped-up!.[Ad] |!ped! .[=A_d]z.[Ad] .[Ac]z!ped-up!.[Ac] | %40
!ped! .[^F=B]z.[FB] .[F_B]z!ped-up!.[FB] |!ped! .[^F=B]z.[FB] .[F_B]z!ped-up!.F | %42
!ped! .Ez.[=A,E] .[A,D]z!ped-up!.[A,D] |!ped! .[=A,^C]z.[A,C] .[A,=C]z!ped-up!.[A,C] | %44
[K:bass]!ped! .[^F,=B,]z.[F,B,] .[F,_B,]z!ped-up!.[F,B,] | %45
!ped! .[^F,=B,]z.[F,B,]!ped-up! .[F,_B,] z2 | z6 | z6 |[K:treble] z6 | z6 | z6 | z6 | %52
 z [_d_f][df] ([df].[ce])[ce] | ([_d_f].[ce])[ce] ([df].[ce])[ce] | z2 .[=Bd] .[Bd]z.[^c=e] | %55
 .[^c=e]z.[df] .[df]z.[^c=e] | .[^c=e]z.[df] .[df]z.[eg] | .[=eg]z.[fa] .[fa]z.[eg] | %58
 .[=eg]z.[fa] .[fa]z.[gb] | [gb]z[a=b] [ab]z[g_b] | [gb]z[a=b] [ab]z[_b^c'] | %61
 [_b^c']z[=bd'] [bd'] z z |!ped! =c'/d'/_e'/f'/.g'/ z/ !^!g3 | c/d/e/f/g/ z/ !^!b3!ped-up! | %64
!ped! g/f/e/d/c/B/ c/B/=A/B/A/B/ | g/f/e/d/c/B/ c/B/=A/B/e/g/!ped-up! | %66
!ped! =c'/d'/_e'/f'/.g'/ z/ !^!g3 | c/d/e/f/g/ z/ !^!b3!ped-up! |!ped! g/f/e/d/c/B/ c/B/=A/B/A/B/ | %69
 g/f/e/d/c/B/ c/B/=A/B/e/g/!ped-up! |!ped! d/c'/b/_a/c'!ped-up! d/c'/b/=a/c' | %71
!ped! d/c'/b/=a/b d/c'/b/a/c'!ped-up! |!ped! d/c'/b/_a/c'!ped-up! d/c'/b/=a/c' | %73
!ped! d/c'/b/=a/b!ped-up! d/c'/b/a/c' | [e=a]z[ea] [da]z[da] | [_d=a]z[da] [ca]z[ca] | %76
!ped! [=B^f]z[Bf] [_Bf]z[Bf]!ped-up! |!ped! [=B^f]z[Bf] [_Bf]z^F!ped-up! | [E=A]z[EA] [DA]z[DA] | %79
 [_D=A]z[DA] [CA]z[CA] | [=B,^F]z[B,F] [_B,F]z[B,F] | [=B,^F]z[B,F] [_B,F] z z | z6 | z6 | z6 | %85
 z6 | z6 | z6 | z6 | z6 |!ped! a/g/f/B/c/B/!ped-up! a/g/f/B/c/B/ | %91
!ped! g/f/e/B/c/B/!ped-up! g/f/e/B/c/B/ |!ped! a/g/f/B/c/B/!ped-up! a/g/f/B/c/B/ | %93
!ped! g/f/e/B/c/B/!ped-up! _g/f/e/B/g/=B/ |!ped! =a/^g/^f/=B/^c/B/!ped-up! a/g/f/B/c/B/ | %95
!ped! ^g/^f/=e/=B/^c/B/!ped-up! g/f/e/B/c/B/ |!ped! =a/^g/^f/=B/^c/B/!ped-up! a/g/f/B/c/B/ | %97
!ped! ^g/^f/=e/=B/^c/B/!ped-up! =g/f/e/B/g/=c/ |!ped! _b/=a/g/c/g/a/!ped-up! b/a/g/c/g/a/ | %99
!ped! b/g/f/d/f/=a/!ped-up! b/g/f/_d/f/b/ ||[K:C]!ped! b/^a/^g/^c/g/a/!ped-up! b/a/g/c/g/a/ | %101
!ped! b/^g/^f/^d/f/a/!ped-up! b/g/f/d/f/b/ |!ped! b/^c'/^d'/^e'/^f'/ z/ !^!^f3!ped-up! | %103
!ped! b/^d'/=e'/^f'/^g'/ z/ !^!^g3!ped-up! | _a/=g'/=f'/=e'/f'/=d'/ a/g'/f'/e'/f'/d'/ | %105
 _a/g'/f'/e'/f'/d'/ a/g'/f'/e'/f'/d'/ |!ped! b/^c'/^d'/^e'/^f'/ z/ !^!^f3!ped-up! | %107
!ped! b/^d'/=e'/^f'/^g'/ z/ !^!^g3!ped-up! | _a/=g'/=f'/=e'/f'/=d'/ a/g'/f'/e'/f'/d'/ | %109
 _a/g'/f'/e'/f'/d'/ a/g'/f'/e'/f'/d'/ ||[K:Eb]!ped! g/f'/e'/d'/e'/b/ g/f'/e'/d'/e'/b/!ped-up! | %111
!ped! c/b/a/g/a/f/ c/b/a/g/a/f/!ped-up! |!ped! g/f/e/d/e/B/ g/f/e/d/e/B/!ped-up! | %113
!ped! c/B/c/B/c/B/ c/B/c/B/c/B/!ped-up! | x6 |!ped! x6!ped-up! | x6 |!ped! x6!ped-up! | x6 | x6 | %120
 x6 | .=E.F._C .E.F.C | z2 z B,3- | B,zB, B, z z | z2 z B,3- | B,zB, B, z z ||[K:C] z2 z =B,3- | %127
 B,zB, B, z z | z2 z B,3- | B,zB, B, z z | z2 z C3 | DGF =EF=C | z2 z ^C3 | ^D^G^F ^E2 F || %134
[K:E] z2 z!p! [A,C][A,C][A,C] | z2 z [CE][CE][CE] | B, z z C/B,/^A,/B,/A,/B,/ | z2 z E/F/E/F/G | %138
 [EA] z z [Ac][Ac][Ac] | [EA] z z [ce][ce][ce] | [EB] z z c/B/^A/B/A/B/ | z2 z e/f/e/f/g | %142
 [FA]z[FA] [^^F^A]z[FA] | [GB]z[GB] [^^F^A]z[FA] | [FA]z[FA] [^^F^A]z[FA] | [GB]z[GB] [=G^A] z z || %146
[M:2/4] z !arpeggio![=G^Ae] z !arpeggio![GAd] | z !arpeggio![F^A=d] z !arpeggio![FAc] | %148
 z !arpeggio![E=G=c] z !arpeggio![EGB] | z !arpeggio![^D=G=c] z !arpeggio![DGB] | z [=G^A] z [GA] | %151
 z [F^A] z [FA] | z [E=G] z [EG] | z [_E=G] z !tenuto![=DG] ||[K:C][M:6/8] z6 | z6 | z6 | z6 | z6 | %159
 z6 | z [d=f][df] [df][^ce][ce] | [df][^ce][ce] [df][ce][ce] | z2 .[=c_e] .[ce]z.[df] | %163
 .[df]z.[_e^f] .[ef]z.[d=f] | .[df]z.[_e^f] .[ef]z.[=f^g] | .[f^g]z.[^fa] .[fa]z.[=f^g] | %166
 .[f^g]z.[^fa] .[fa]z.[^gb] | .[^gb]z.[ac'] .[ac']z.[^gb] | .[^gb]z.[ac'] .[ac']z.[bd'] | %169
 .[bd']z.[c'_e'] .[c'e'] z z |!ped! c/d/_e/=f/^f/ z/ !^![^Ff]3!ped-up! | z6 | %172
!ped! c/d/_e/=f/^f/ z/ !^![^Ff]3!ped-up! | z6 | z6 |!ped! c/d/_e/=f/^f/ z/ !^![^F_ef]3 | %176
 c/d/_e/=f/^f/ z/ !^![^F_ef]3!ped-up! | !fermata!z6 || z6 | z6 | z6 | z6 | z6 | z6 | z6 | z6 | z6 | %187
 z6 | z6 | z6 | z6 | z6 ||[K:B] z6 | z6 | z6 | z6 | z6 | z2 z E2 F ||[K:C] G3 c3- | c2 z G2 A | %200
 G3 c3- | c2 z G3 | _e3 =A2 _B | _e3 =A2 ^A ||[K:B] !>!^d6- | d z .c.c z .G |.G z .A.A z .G | %207
.G z .A.A z .B |.B z .^B.B z .c |.c z z z2 z | z2 z F2 G | A3 c2 z | z2 z F2 G | A3 ^^c2 z | %214
 z2 z F3 | G3 ^^G3 | A3 d3- | d6 | z6 | z6 | z6 | z6 |!ped! !arpeggio![Fd]6- | [Fd]3 F3!ped-up! | %224
!ped! =G6- | G3 B3!ped-up! |!ped! [Fd]6- | [Fd]3 F3!ped-up! |!ped! =G6- | G3 B3!ped-up! | %230
!ped! !arpeggio![Fd]3 F3!ped-up! |!ped! =G3 B3!ped-up! |!ped! !arpeggio![Fd]3 F3!ped-up! | %233
!ped! =G3 B3!ped-up! |!ped! !>!=c3- c2 (3B/c/=d/ | =c2 B c2!ped-up! B |!ped! ^c3- c2 (3B/c/^d/ | %237
 c2 B c2!ped-up! e |!ped! !arpeggio![Bg]6- | [Bg]3 B3!ped-up! |!ped! =c6- | c3 e3!ped-up! | %242
!ped! !arpeggio![Bg]6- | [Bg]3 B3!ped-up! |!ped! =c6- | c3 e3!ped-up! | %246
!ped! !arpeggio![Bg]3 B3!ped-up! |!ped! =c3 e3!ped-up! |!ped! !arpeggio![Bg]3 B3!ped-up! | %249
!ped! =c3 e3!ped-up! | =f3- f2 (3e/f/=g/ | =f2 e f2 e | ^f3- f2 (3e/f/^g/ | f2 e d2 z | %254
 !arpeggio![^cg]6 |!ped! =a6-!ped-up! |!ped! a3 ^e3 | =d3!ped-up! c3 |!ped! =c3 (5:3:5BcB=AB | %259
{/=d} =c3!ped-up! B3 |!ped! ^c3 (5:3:5BcB=AB |{/=d} c3!ped-up! B3 |!ped! [^cg]6!ped-up! | %263
!ped! =a6-!ped-up! |!ped! a3 ^e3 | =d3!ped-up! c3 |!ped! =c3 (5:3:5BcB=AB |{/=d} =c3 B3!ped-up! | %268
!ped! ^c3 (5:3:5BcB=AB |{/=d} c3!ped-up! B3 |!ped! g6!ped-up! |!ped! =g3 c^dc!ped-up! | %272
!ped! f6!ped-up! |!ped! =f3 BcB!ped-up! |!ped! e6 | e3 (5:3:5BcB!ped-up!^AB |!ped! e6 | %277
 e3 (5:3:5BcB!ped-up!AB |!ped! e3 e2 c | A3 d2!ped-up! c |!ped! A3 A2 (3G/A/G/ | %281
 ^^F2 G/A/ G3!ped-up! |!ped! e3 e2 c | A3 d2!ped-up! c | A3 A2 (3G/A/G/ | ^^F2 G/A/ G3 | %286
 A3 G/A/G/A/(3G/A/G/ | ^^F3 G/A/G/A/(3G/A/G/ | E3 ^F3 | =G3 ^G3 | z6 | =A6 | z6 | ^A6 | z6 | z6 | %296
 =A6 | ^A6 |!ped! !arpeggio![Fd] z z z d/c/B/G/ | F z z z2!ped-up! B/c/ | %300
!ped! !arpeggio![=Gd] z z z d/c/B/=G/ | D z z z2!ped-up! B/c/ | %302
!ped! !arpeggio![Fd] z z z d/c/B/G/ | F z z z2!ped-up! B/c/ | %304
!ped! !arpeggio![=Gd] z z z d/c/B/=G/ | D z z z2!ped-up! B/c/ | %306
!ped! d/c/d/c/d/c/d/c/d/c/d/c/!ped-up! |!ped! d/B/d/B/d/B/d/B/d/B/d/B/!ped-up! | %308
!ped! d/c/d/c/d/c/d/c/d/c/d/c/!ped-up! |!ped! d/B/d/B/d/B/d/B/d/B/d/B/!ped-up! | %310
 z2 z!ped! =c2 (3B/c/=d/ | =c2 B{/=d} c2 B | z2 z ^c2 (3B/c/^d/ | c2 B{/d} c2 e!ped-up! | %314
!ped! !arpeggio![Bg] z z z g/f/e/c/ | B z z z2 e/!ped-up!f/ |!ped! [=cg] z z z g/f/e/=c/ | %317
 G z z z2!ped-up! e/f/ |!ped! [Bg] z z z g/f/e/c/ | B z z z2 e/!ped-up!f/ | %320
!ped! [=cg] z z z g/f/e/=c/ | G z z z2!ped-up! e/f/ |!ped! g/f/g/f/g/f/g/f/g/f/g/f/!ped-up! | %323
!ped! g/e/g/e/g/e/g/e/g/e/g/e/!ped-up! |!ped! g/f/g/f/g/f/g/f/g/f/g/f/!ped-up! | %325
!ped! g/e/g/e/g/e/g/e/g/e/g/e/!ped-up! | z2 z!ped! !>!=f2 (3e/f/=g/ | =f2 e{/g} f2!ped-up! e | %328
!ped! z2 z !>!^f2 (3e/f/!ped-up!^g/ | f2 e d2 z | %330
!pp!!ped! c/!<(!g/c/g/c/g/c/g/c/g/c/g/!ped-up!!<)! |!p!!ped! c/=a/c/a/c/a/c/a/c/a/c/a/!ped-up! | %332
!ped! !arpeggio![=d=a]3 =f3 | =d3 ^c3!ped-up! |!ped! !>!=c3 (5:3:5BcB=AB |{/=d} =c3 B2!ped-up! z | %336
!ped! !>!^c3 (5:3:5BcB=AB |{/=d} c3 B2!ped-up! z |!p!!ped! c/!<(!g/c/g/c/g/c/g/c/g/c/g/!ped-up! | %339
!ped! c/=a/c/a/c/a/c/a/c/a/c/a/!<)!!ped-up! |!mp!!ped! !arpeggio![=d=a]3 =f3 | =d3 ^c3!ped-up! | %342
[K:B]!ped! !>!=c3 (5:3:5BcB=AB |{/=d} =c3 B2!ped-up! z |!ped! !>!^c3 (5:3:5BcB=AB | %345
{/=d} c3 B2!ped-up! z ||[K:C]!ped!!<(! d/a/d/a/d/a/d/a/d/a/d/a/!ped-up! | %347
!ped! d/_b/d/b/d/b/d/b/d/b/d/b/!<)!!ped-up! |!mp!!ped! !arpeggio![_e_b]3 _g3 | _e3 d3!ped-up! | %350
!ped! _d3 (5:3:5cdc_Bc |{/_e} _d3 c2!ped-up! z |!ped! =d3 (5:3:5cdc_Bc |{/_e} d3 c2!ped-up! z | %354
!<(! d/a/d/a/d/a/d/a/d/a/d/a/ | d/_b/d/b/d/b/ d/b/d/b/d/b/!<)! |!mf! !arpeggio![_e_b]3 _g3 | %357
 _e3 d3 |!ped! _d3 (5:3:5cdc_Bc |{/_e} _d3 c2!ped-up! z |!ped! =d3 (5:3:5cdc_Bc | %361
{/_e} d3 c2!ped-up! z |!mp!!ped! _e/"_cresc."_b/e/b/e/b/e/b/e/b/!ped-up!e/b/ | %363
!ped! _e/_c'/e/c'/e/c'/e/c'/e/!ped-up!c'/e/c'/ |!ped! _e/_b/e/b/e/b/!ped-up! e/=b/e/b/e/b/ | %365
 _e/_b/e/b/e/b/ e/=b/e/b/e/b/ |!ped! =e/b/e/b/e/b/e/b/e/b/e/b/!ped-up! | %367
!ped! e/c'/e/c'/e/c'/e/c'/e/c'/e/c'/!ped-up! |!ped! e/b/e/b/e/b/!ped-up! e/c'/e/c'/e/c'/ | %369
 e/b/e/b/e/b/ e/c'/e/c'/e/c'/ |!ff! [fc']/d/e/.f/ z !^!f3 | [fc']/d/e/.f/ z !^!f3 | %372
 A/g/f/g/.f A/g/f/g/.f | A/g/f/g/.f A/g/f/g/.f | [fc']/d/e/.f/ z !^!f3 | [fc']/d/e/.f/ z !^!f3 | %376
 A/g/f/g/.f A/g/f/g/.f | A/g/f/g/.f A/g/f/g/.f | [fc']/d/e/.f/ z A/g/f/g/.f | %379
 _B/a/g/a/.g B/a/g/a/.g | c/_b/a/b/.a c/b/a/b/.a | c/_b/a/b/.a _d/c'/b/c'/.b || %382
[K:Eb]!ped! [_g_d']/e/f/.g/ z !^!g3 | [_g_d']/e/f/.g/ z !^!g3!ped-up! | %384
!ped! B/a/_g/a/.g B/a/g/a/.g!ped-up! |!ped! B/a/_g/a/.g B/a/g/a/.g!ped-up! | %386
!ped! [_g_d']/e/f/.g/ z !^!g3 | [_g_d']/e/f/.g/ z !^!g3!ped-up! | %388
!ped! B/a/_g/a/.g B/a/g/a/.g!ped-up! |!ped! B/a/_g/a/.g B/a/g/a/.g!ped-up! | %390
!ped! [_g_d']/e/f/.g/ z B/a/g/a/.g!ped-up! |!ped! _c/b/a/b/.a c/b/a/b/.a!ped-up! | %392
!ped! _d/_c'/b/c'/.b d/c'/b/c'/.b!ped-up! |!ped! _d/_c'/b/c'/.b =d/_d'/c'/d'/c'!ped-up! | %394
 _g/f'/e'/_d'/e'/d'/ g/f'/e'/d'/e'/d'/ | _g/f'/e'/_d'/e'/d'/ g/f'/e'/d'/e'/d'/ | %396
 _g/f'/e'/_d'/e'/d'/ g/f'/e'/d'/e'/d'/ | _g/f'/e'/_d'/e'/d'/ g/f'/e'/d'/e'/d'/ | %398
 e'/_d'/b/=a/b/a/ e'/d'/b/a/b/a/ | b/=a/_g/f/g/f/ b/a/g/f/g/f/ | _a/_g/e/_d/e/d/ a/g/e/d/e/d/ | %401
 e/_d/B/=A/B/A/ e/d/B/A/B/A/ | e/_d/B/=A/ z e/_d/B/A/ z | B/=A/_G/F/ z B/A/G/F/ z | %404
 _A/_G/E/_D/ z z2 z | A/_G/E/_D/ z z2 z | z6 | z6 | z6 | z6 | z6 | z6 | %412
 z [_d_f][df] ([df].[ce])[ce] | ([_d_f].[ce])[ce] ([df].[ce])[ce] | z2 .[=B=d] .[Bd]z.[c=e] | %415
 .[^c=e]z.[df] .[df]z.[ce] | .[^c=e]z.[df] .[df]z.[eg] | .[=eg]z.[fa] .[fa]z.[eg] | %418
 .[=eg]z.[fa] .[fa]z.[gb] | .[gb]z.[_a=b] .[ab]z.[g_b] | .[g_b]z.[a=b] .[ab]z.[_b^c'] | %421
 .[_b^c']z.[=bd'] .[bd'] z z |!ped! c'/d'/e'/f'/g'/ z/ !^!g3 | c/d/e/f/g/ z/ !^!b3!ped-up! | %424
!ped! g/f/e/d/c/B/ c/B/=A/B/A/B/ | g/f/e/d/c/B/ c/B/=A/B/e/g/!ped-up! | %426
!ped! c'/d'/e'/f'/g'/ z/ !^!g3 | c/d/e/f/g/ z/ !^!b3!ped-up! |!ped! g/f/e/d/c/B/ c/B/=A/B/A/B/ | %429
 g/f/e/d/c/B/ c/B/=A/B/e/g/!ped-up! |!ped! d/c'/b/_a/.c'!ped-up! d/c'/b/=a/.c' | %431
!ped! d/c'/b/=a/.c'!ped-up! d/c'/b/a/.c' |!ped! d/c'/b/_a/.c'!ped-up! d/c'/b/=a/.c' | %433
!ped! d/c'/b/=a/.c'!ped-up! d/c'/b/a/.c' |!ped! [e=a]z[ea] [da]z[da]!ped-up! | %435
!ped! [_d=a]z[da] [ca]z[ca]!ped-up! |!ped! [=B^f]z[Bf] [_Bf]z[Bf]!ped-up! | %437
!ped! [=B^f]z[Bf] [_Bf]z^F!ped-up! |!ped! [_E=A]z[EA] [DA]z[DA]!ped-up! | %439
!ped! [_D=A]z[DA] [CA]z[CA]!ped-up! |!ped! [=B,^F]z[B,F] [_B,F]z[B,F]!ped-up! | %441
 [=B,^F]z[B,F] [_B,F] z2 | z6 | z6 | z6 | z6 | z6 | z6 | z6 | z6 | z2 z B,3- | B,z.B, .B, z z | %452
 z2 z B,3- | B,z.B, .B, z z | z2 z =B,3- | B,z.=B, .B, z z | z2 z =B,3- | B,z.=B, .B, z z | %458
 z2 z C3 | ._Dz.D .D z z | z2 z ^C3 | .^Dz.D .D z z | z2 z ^D3 | .^Dz.D .D z z | z2 z ^D3- | %465
 D3 [_E=B]3 | [F_B]3 [FAB]3 | [GB]3 B x2 | [FB]3 [FAB]3 | [GB]3 B x2 | [_G_c]3 [^F=A=B]3 | %471
!ped! [^G=B]3- =B x2!ped-up! |!ped! [^F=B]3 [F=AB]3!ped-up! |!ped! [^G=B-]3!ped-up! B x2 | %474
!ped! [G=c]3!ped-up! [G_Bc]3 |!ped! .[FB_d]2 .[FBd]!ped-up! .[FBd]2 z | %476
!ped! [_A_d]3!ped-up! [Ad]3 | .[_G_ce]2 .[Gce] .[Gce] z z || %478
[K:C]!ped! b/^c'/^d'/^e'/^f'/ z/ !^!^f3!ped-up! |!ped! b/^d'/=e'/^f'/^g'/ z/ !^!^g3!ped-up! | %480
!ped! _a/=g'/=f'/!ped-up!=e'/f'/=d'/ a/g'/f'/e'/f'/d'/ | %481
!ped! _a/g'/f'/e'/f'/d'/!ped-up! a/g'/f'/e'/f'/d'/ |!ped! b/^c'/^d'/^e'/^f'/ z/ !^!^f3!ped-up! | %483
!ped! b/^d'/=e'/^f'/^g'/ z/ !^!^g3!ped-up! | %484
!ped! _a/=g'/=f'/!ped-up!=e'/f'/=d'/ a/g'/f'/e'/f'/d'/ | %485
!ped! _a/g'/f'/e'/f'/d'/!ped-up! a/g'/f'/e'/f'/d'/ || %486
[K:Eb]!ped! g/f'/e'/d'/e'/b/ g/f'/e'/d'/e'/b/!ped-up! |!ped! c/b/a/g/a/f/ c/b/a/g/a/f/!ped-up! | %488
!ped! g/f/e/d/e/B/ g/f/e/d/e/B/!ped-up! |!ped! c/B/c/B/c/B/ c/B/c/B/c/B/!ped-up! | %490
!ped! x6!ped-up! |!ped! x6!ped-up! |!ped! x6!ped-up! | x6 | x6 | x6 | x6 | .=E.F._C .E.F.C | %498
 z2 z A,A,A, | !^!E2 z A,A,A, | !^!E2 z A,A,A, | !^!E2 z A,A,A, | !^!E2 z .E.F.G | .G.A.B .B.c.d | %504
 .E.F.G .G.A.B | .B.c.d .e.[Ff].[Gg] |!ped! [GBeg]6- | [GBeg]3 [GBeg]3!ped-up! | %508
!ped! !^![G_ceg]6- | [Gceg]3 [G_ceg]3!ped-up! |!ped! [GBeg]6- | [GBeg]3 [GBeg]3!ped-up! | %512
!ped! !^![G_ceg]6- | [Gceg]3 [G_ceg]3!ped-up! |!ped! [GBeg]3 [GBeg]3!ped-up! | %515
!ped! [G_ceg]3 [G_ceg]3!ped-up! |!ped! [GBeg]3 [GBeg]3!ped-up! |!ped! [G_ceg]3 [G_ceg]3!ped-up! | %518
!ped! [A=cea]3 [Acea]3!ped-up! |!ped! [A_dfa]3 [Adfa]3!ped-up! |!ped! [A=cea]3 [Acea]3!ped-up! | %521
!ped! [A_dfa]3 [Adfa]3!ped-up! |!ped! [=A^cf=a]3 [Acfa]3!ped-up! | %523
!ped! [=A=df=a]3 [Adfa]3!ped-up! |!ped! [=A^cf=a]3 [Acfa]3!ped-up! | %525
!ped! [=A=df=a]3 [Adfa]3!ped-up! |!ped! _B/c/d/e/f/g/_a/b/c'/d'/e'/f'/ | %527
 !^!g'/f'/e'/d'/c'/b/a/g/f/e/d/c/ | _B/c/d/e/f/g/_a/b/c'/d'/e'/f'/ | %529
 !^!g'/f'/e'/d'/c'/b/a/g/f/e/d/c/ | _B/c/d/e/f/g/_a/b/c'/d'/e'/f'/ | %531
 !^!g'/f'/e'/d'/c'/b/ a/b/c'/d'/e'/f'/ | !^!g'/f'/e'/d'/c'/b/ a/b/c'/d'/e'/f'/ | %533
 !^!g'/f'/e'/d'/c'/b/ a/b/c'/d'/e'/f'/ | g'/f'/d'/b/ z z2 z | g'/f'/d'/b/ z z2 z!ped-up! | %536
!ped! =bbbbbb | =bbbbbb!ped-up! | !wedge!=b2 z !wedge!f2 z | !wedge!=B2 z !wedge!F2 z | =BBBBBB | %541
 =BBBBBB | =B2 z F2 z | =B,2 z z2 z | =B,2 z z2 z | =B,2 z z2 z | z6 | z6 | z6 | z6 | z6 | z6 |] %552
V:3
 x6 | x6 | x6 | x6 | x6 | x6 | x6 | x6 | x6 | x6 | x6 | x6 | x6 | x6 ||[K:E] x6 | x6 | x6 | x6 | %18
 x6 | x6 | x6 | x6 | x6 | x6 | x6 | x6 ||[K:Eb]!8va(! x6 | x6 | x6 | x6 | x6 | x6 | x6 | x6 | x6 | %35
 x6 | x6 | x6 | x6 | x6!8va)! | x6 | x6 | x6 | x6 | x6 | x6 | x6 | x6 | x6 | x6 | x6 | x6 | %52
 x!8va(! x5 | x6 | x6 | x6 | x6 | x6 | x6 | x6 | x6 | x6 | x6 | x6 | x6 | x6 | x6 | x6 | x6 | x6 | %70
 x6 | x6 | x6 | x6 | x6 | x6 | x6 | x6 | x6 | x6!8va)! | x6 | x6 | x6 | x6 | x6 | x6 | x6 | x6 | %88
 x6 | x6 |!8va(! x6 | x6 | x6 | x6 | x6 | x6 | x6 | x6 | x6 | x6 ||[K:C] x6 | x6 | x6 | x6 | x6 | %105
 x6 | x6 | x6 | x6 | x6 ||[K:Eb] x6 | x6 | x6!8va)! | x6 | x6 | x6 | x6 | x6 | x6 | x6 | x6 | x6 | %122
 x6 | x6 | x6 | x6 ||[K:C] x6 | x6 | x6 | x6 | x6 | x6 | x6 | x6 ||[K:E] x6 | x6 | x6 | x6 | x6 | %139
 x6 | x6 | x6 |!8va(! dzd dzd | dzd dzd | dzd dzd | dzd e z z ||[M:2/4] x4 | x4 | x4 | x3!8va)! x | %150
 x4 | x4 | x4 | x4 ||[K:C][M:6/8] x6 | x6 | x6 | x6 | x6 | x6 |!8va(! x6 | x6 | x6 | x6 | x6 | x6 | %166
 x6 | x6 | x6 | x6 | x6!8va)! | x6 |!8va(! x6!8va)! | x6 | x6 |!8va(! x6 | x6!8va)! | x6 || x6 | %179
 x6 | x6 | x6 | x6 | x6 | x6 | x6 | x6 | x6 | x6 | x6 | x6 | x6 ||[K:B] x6 | x6 | x6 | x6 | x6 | %197
 x6 ||[K:C] x6 | x6 | x6 | x6 | x6 | x6 ||[K:B] x6 | x6 | x6 | x6 | x6 | x6 | x6 | x6 | x6 | x6 | %214
 x6 | x6 | x6 | x6 | x6 | x6 | x6 | x6 | x6 | x6 | x6 | x6 | x6 | x6 | x6 | x6 | x6 | x6 | x6 | %233
 x6 | x6 | x6 | x6 | x6 |!8va(! x6 | x6 | x6 | x6 | x6 | x6 | x6 | x6 | x6 | x6 | x6 | x6 | x6 | %251
 x6 | x6 | x6 | x6 | x6 | x6 | x6 | x6 | x6 | x6 | x6!8va)! |!8va(! x6 | x6 | x6 | x6 | x6 | x6 | %268
 x6 | x6 | x6 | x6 | x6 | x6 | x6 | x6 | x6 | x3!8va)! x3 | x6 | x6 | x6 | x6 | x6 | x6 | x6 | x6 | %286
 x6 | x6 | x6 | x6 | x6 | x6 | x6 | x6 | x6 | x6 | x6 | x6 | x6 | x6 | x6 | x6 | x6 | x6 | x6 | %305
 x6 |!8va(! !>!f2 z x x2 | !>!=g2 z x x2 | !>!f2 z x x2 | !>!=g2 z x x2!8va)! | x3!8va(! x3 | x6 | %312
 x6 | x6 | x4!8va)! x2 | x4!8va(! x2 | x4!8va)! x2 | x4!8va(! x2 | x4!8va)! x2 | x4!8va(! x2 | %320
 x4!8va)! x2 | x4!8va(! x2 | b2 z x x2 | =c'2 z x x2 | b2 z x x2 | =c'2 z x x2 | x6 | x6 | x6 | %329
 x6 | x6 | x6 | x6 | x6!8va)! |!8va(! x6 | x6 | x6 | x6 | x6 | x6 | x6 | x6 |[K:B] x6 | x6 | x6 | %345
 x6 ||[K:C] x6 | x6 | x6 | x6 | x6 | x6 | x6 | x6 | x6 | x6 | x6 | x6 | x6 | x6 | x6 | x6 | x6 | %363
 x6 | x6 | x6 | x6 | x6 | x6 | x6 | x6 | x6 | x6 | x6 | x6 | x6 | x6 | x6 | x6 | x6 | x6 | x6 || %382
[K:Eb] x6 | x6 | x6 | x6 | x6 | x6 | x6 | x6 | x6 | x6 | x6 | x6 | x6 | x6 | x6 | x6 | x6 | x6 | %400
 x6 | x6 | x6!8va)! | x6 | x6 | x6 | x6 | x6 | x6 | x6 | x6 | x6 |!8va(! x6 | x6 | x6 | x6 | x6 | %417
 x6 | x6 | x6 | x6 | x6 | x6 | x6 | x6 | x6 | x6 | x6 | x6 | x6 | x6 | x6 | x6 | x6 | x6 | x6 | %436
 x6 | x6 | x6 | x6!8va)! | x6 | x6 | x6 | x6 | x6 | x6 | x6 | x6 | x6 | x6 | x6 | x6 | x6 | x6 | %454
 x6 | x6 | x6 | x6 | x6 | x6 | x6 | x6 | x6 | x6 | x6 | x6 | x3!8va(! x3 | x6 | x6 | x6 | x6 | x6 | %472
 x6 | x6 | x6 | x6 | x6 | x6 ||[K:C] x6 | x6 | x6 | x6 | x6 | x6 | x6 | x6 ||[K:Eb] x6 | x6 | %488
 x6!8va)! | x6 | x6 | x6 | x6 | x6 | x6 | x6 | x6 | x6 | x6 | x6 | x6 | x6 | x6 | x6 | x6 | x6 | %506
!8va(! x6 | x6 | x6 | x6 | x6 | x6 | x6 | x6 | x6 | x6 | x6 | x6 | x6 | x6 | x6 | x6 | x6 | x6 | %524
 x6 | x6 | x6 | x6 | x6 | x6 | x6 | x6 | x6 | x6 | x6 | x2!8va)! x4 |!8va(! x6 | x6 | x6 | %539
 x6!8va)! | x6 | x6 | x6 | x6 | x6 | x6 | x6 | x6 | x6 | x6 | x6 | x6 |] %552
V:4
 x6 | x6 | x6 | x6 | x6 | x6 | x6 | x6 | x6 | x6 | x6 | x6 | x6 | x6 ||[K:E] x6 | x6 | x6 | x6 | %18
 x6 | x6 | x6 | x6 | x6 | x6 | x6 | x6 ||[K:Eb] x6 | x6 | x6 | x6 | x6 | x6 | x6 | x6 | x6 | x6 | %36
 x6 | x6 | x6 | x6 | x6 | x6 | x6 | x6 |[K:bass] x6 | x6 | x6 | x6 |[K:treble] x6 | x6 | x6 | x6 | %52
 x6 | x6 | x6 | x6 | x6 | x6 | x6 | x6 | x6 | x6 | x6 | x6 | x6 | x6 | x6 | x6 | x6 | x6 | x6 | %71
 x6 | x6 | x6 | x6 | x6 | x6 | x6 | x6 | x6 | x6 | x6 | x6 | x6 | x6 | x6 | x6 | x6 | x6 | x6 | %90
 x6 | x6 | x6 | x6 | x6 | x6 | x6 | x6 | x6 | x6 ||[K:C] x6 | x6 | x6 | x6 | x6 | x6 | x6 | x6 | %108
 x6 | x6 ||[K:Eb] x6 | x6 | x6 | x6 | x6 | x6 | x6 | x6 | x6 | x6 | x6 | x6 | x6 | x6 | x6 | x6 || %126
[K:C] x6 | x6 | x6 | x6 | x6 | x6 | x6 | x6 ||[K:E] x6 | x6 | x6 | x6 | x6 | x6 | x6 | x6 | x6 | %143
 x6 | x6 | x6 ||[M:2/4] x4 | x4 | x4 | x4 | x4 | x4 | x4 | x4 ||[K:C][M:6/8] x6 | x6 | x6 | x6 | %158
 x6 | x6 | x6 | x6 | x6 | x6 | x6 | x6 | x6 | x6 | x6 | x6 | x6 | x6 | x6 | x6 | x6 | x6 | x6 | %177
 x6 || x6 | x6 | x6 | x6 | x6 | x6 | x6 | x6 | x6 | x6 | x6 | x6 | x6 | x6 ||[K:B] x6 | x6 | x6 | %195
 x6 | x6 | x6 ||[K:C] x6 | x6 | x6 | x6 | x6 | x6 ||[K:B] x6 | x6 | x6 | x6 | x6 | x6 | x6 | x6 | %212
 x6 | x6 | x6 | x6 | x6 | x6 | x6 | x6 | x6 | x6 | x6 | x6 | x6 | x6 | x6 | x6 | x6 | x6 | x6 | %231
 x6 | x6 | x6 | x6 | x6 | x6 | x6 | x6 | x6 | x6 | x6 | x6 | x6 | x6 | x6 | x6 | x6 | x6 | x6 | %250
 x6 | x6 | x6 | x6 | x6 | x6 | x6 | x6 | x6 | x6 | x6 | x6 | x6 | x6 | x6 | x6 | x6 | x6 | x6 | %269
 x6 | x6 | x6 | x6 | x6 | x6 | x6 | x6 | x6 | x6 | x6 | x6 | x6 | x6 | x6 | x6 | x6 | x6 | x6 | %288
 x6 | x6 | x6 | x6 | x6 | x6 | x6 | x6 | x6 | x6 | x6 | x6 | x6 | x6 | x6 | x6 | x6 | x6 | x6 | %307
 x6 | x6 | x6 | x6 | x6 | x6 | x6 | x6 | x6 | x6 | x6 | x6 | x6 | x6 | x6 | x6 | x6 | x6 | x6 | %326
 x6 | x6 | x6 | x6 | x6 | x6 | x6 | x6 | x6 | x6 | x6 | x6 | x6 | x6 | x6 | x6 |[K:B] x6 | x6 | %344
 x6 | x6 ||[K:C] x6 | x6 | x6 | x6 | x6 | x6 | x6 | x6 | x6 | x6 | x6 | x6 | x6 | x6 | x6 | x6 | %362
 x6 | x6 | x6 | x6 | x6 | x6 | x6 | x6 | x6 | x6 | x6 | x6 | x6 | x6 | x6 | x6 | x6 | x6 | x6 | %381
 x6 ||[K:Eb] x6 | x6 | x6 | x6 | x6 | x6 | x6 | x6 | x6 | x6 | x6 | x6 | x6 | x6 | x6 | x6 | x6 | %399
 x6 | x6 | x6 | x6 | x6 | x6 | x6 | x6 | x6 | x6 | x6 | x6 | x6 | x6 | x6 | x6 | x6 | x6 | x6 | %418
 x6 | x6 | x6 | x6 | x6 | x6 | x6 | x6 | x6 | x6 | x6 | x6 | x6 | x6 | x6 | x6 | x6 | x6 | x6 | %437
 x6 | x6 | x6 | x6 | x6 | x6 | x6 | x6 | x6 | x6 | x6 | x6 | x6 | x6 | x6 | x6 | x6 | x6 | x6 | %456
 x6 | x6 | x6 | x6 | x6 | x6 | x6 | x6 | x6 | x6 | x6 | x3 G.F.E | x6 | x3 _G.E._d | x6 | %471
 x3 ^G.^F.=E | x6 | x3 =G.=E.d | x6 | x6 | x6 | x6 ||[K:C] x6 | x6 | x6 | x6 | x6 | x6 | x6 | x6 || %486
[K:Eb] x6 | x6 | x6 | x6 | x6 | x6 | x6 | x6 | x6 | x6 | x6 | x6 | x6 | x6 | x6 | x6 | x6 | x6 | %504
 x6 | x6 | x6 | x6 | x6 | x6 | x6 | x6 | x6 | x6 | x6 | x6 | x6 | x6 | x6 | x6 | x6 | x6 | x6 | %523
 x6 | x6 | x6 | x6 | x6 | x6 | x6 | x6 | x6 | x6 | x6 | x6 | x6 | x6 | x6 | x6 | x6 | x6 | x6 | %542
 x6 | x6 | x6 | x6 | x6 | x6 | x6 | x6 | x6 | x6 |] %552
V:5
 z6 | z6 | !^!F6- | F z z z2 z | z2 z!p! .B2 z | .f2 z .[Bb]2 z | .[ff']2 z z2 z | z6 | !^!^F6- | %9
 F z z z2 z | z2 z!p! .B2 z | .^f2 z .[Bb]2 z | .[^f^f']2 z z2 z | z6 ||[K:E] z6 | %15
!p! A,/B,/C/D/F/ z/ z2 z | z6 | D/F/A/B/c/ z/ z2 z | z6 | A/B/c/d/f/ z/ z2 z | %20
 d/f/a/b/c'/ z/ [ac']/[bd']/ z z |"_cresc." d/f/a/b/=c'/ z/ [ac']/[bd']/ z z | %22
 d/f/a/b/^c'/ z/ [ac']/[bd']/ z z | d/f/a/b/=c'/ z/ [ac']/[bd']/ z z | %24
 d/f/a/b/=c'/ z/ [ac']/[f_e']/ z z | [a=c']/[f_e']/ z z [ac']/[fe']/ z z || %26
[K:Eb]!ff! z!mf! [A,CG][A,CG] !^![A,CG][A,CG][A,CG] | z [A,CG][A,CG] !^![CEB][CEB][CEB] | %28
 z [B,EG][B,EG] !>![CEG][B,EG][B,EG] | z [B,EG][B,EG] !>![CEG][B,EG][B,EG] | %30
 z [A,CG][A,CG] !^![A,CG][A,CG][A,CG] | z [A,CG][A,CG] !^![CEB][CEB][CEB] | %32
 z [B,EG][B,EG] !>![CEG][B,EG][B,EG] | z [B,EG][B,EG] !>![CEG][B,EG][B,EG] | %34
 z [B,FA][B,FA] z [B,^F=A][B,FA] | z [B,GB][B,GB] z [B,^F=A][B,FA] | %36
 z [B,=F_A][B,FA] z [B,^F=A][B,FA] | z [B,GB][B,GB] z [E^F=A][EFA] | %38
!ff! !^!^F/^E/F/E/F/E/ F/E/F/E/.F/ z/ | !^!=F/=E/F/E/F/E/ F/E/F/E/.F/ z/ | %40
 !^!_E/D/E/D/E/D/ E/D/E/D/.E/ z/ | !^!D/^C/D/C/D/C/ D/C/.D.B, | %42
[K:bass] !^!^F,/^E,/F,/E,/F,/E,/ F,/E,/F,/E,/.F,/ z/ | %43
 !^!=F,/=E,/F,/E,/F,/E,/ F,/E,/F,/E,/.F,/ z/ | !^!_E,/D,/E,/D,/E,/D,/ E,/D,/E,/D,/.E,/ z/ | %45
 !^!D,/^C,/D,/C,/D,/C,/ .D, z2 |[K:treble]!p! z [B,_GB][B,GB] ([B,GB].[A,FA])[A,FA] | %47
 ([B,_GB].[A,FA])[A,FA] ([B,GB].[A,FA])[A,FA] | z [_D_F][DF] ([DF].[CE])[CE] | %49
 ([_D_F].[CE])[CE] ([DF].[CE])[CE] | z [B,_GB][B,GB] ([B,GB].[A,=FA])[A,FA] | %51
 ([B,_GB].[A,FA])[A,FA] ([B,GB].[A,FA])[A,FA] | z [_D_F][DF] ([DF].[CE])[CE] | %53
 ([_D_F].[CE])[CE] ([DF].[CE])[CE] | z2 .=F F/G/.F.G | G/_A/.G.A A/B/.A.G | G/A/.G.A A/B/.A.B | %57
 B/_c/.B.c c/_d/.c.B |"_cresc." B/_c/.B.=B B/^c/.B.c | ^c/d/.c.d d/e/.d.c | %60
 .[_B^c]z.[=Bd] .[Bd]z.[^c=e] | .[^c=e]z.[df] .[df] z z | %62
!ff! z [A,CG][A,CG] !^![A,CG][A,CG][A,CG] | z [A,CG][A,CG] !^![CEB][CEB][CEB] | %64
 z [B,EG][B,EG] !>![CEG][B,EG][B,EG] | z [B,EG][B,EG] !>![CEG][B,EG][B,EG] | %66
!ff! z [A,CG][A,CG] !^![A,CG][A,CG][A,CG] | z [A,CG][A,CG] !^![CEB][CEB][CEB] | %68
 z [B,EG][B,EG] !>![CEG][B,EG][B,EG] | z [B,EG][B,EG] !>![CEG][B,EG][B,EG] | %70
 z [B,FA][B,FA] z [B,^F=A][B,FA] | z [B,GB][B,GB] z [B,^F=A][B,FA] | %72
 z [B,=F_A][B,FA] z [B,^F=A][B,FA] | z [B,GB][B,GB] z [E^F=A][EFA] |!f! !//-!^F3 =A3 | %75
 !//-!=F3 =A3 | !//-!_E3 ^F3 | D/^F/D/F/D/F/ D/B,/D/B,/D/B,/ |[K:bass] !//-!^F,3 =A,3 | %79
 !//-!=F,3 =A,3 | !//-!E,3 ^F,3 | !//-!D,3/2 ^F,3/2 D, z z |[K:treble]!ff! ^FFF =FFF | !^!G6 | %84
 ^F2 z x x2 | x6 | z6 | =B,6 | _B,2 z x x2 | z6 |!mp! !>!B,3 !>![B,FA]3 | !>![B,EG-]3 G.F.E | %92
!mp! !>!B,3 !>![B,FA]3 | !>![B,EG]3 _G.E._D | !>!=B,3 !>![B,^F=A]3 | !>![=B,=E^G-]3 G.^F.E | %96
 !>!=B,3 !>![B,^F=A]3 | !>![=B,=E^G]3"_cresc." =G.E.=D | !>!=C3 !>![CG_B]3 | %99
 !>![DFB-]3 [_DB].F.^C ||[K:C] !>!^C3 !>![C^GB]3 | !>![^D^FB-]3 B.F.=D | %102
!ff! [B,^D^FB][B,DFB][B,DFB] !^![B,DFB][B,DFB][B,DFB] | %103
 [B,E^GB][B,EGB][B,EGB] !^![B,EGB][B,EGB][B,EGB] | z [=D=F_A][DFA] z [DFA][DFA] | %105
 z [DF_A][DFA] z [DFA][DFA] | [B,^D^FB][B,DFB][B,DFB] !^![B,DFB][B,DFB][B,DFB] | %107
 [B,E^GB][B,EGB][B,EGB] !^![B,EGB][B,EGB][B,EGB] | z [=D=F_A][DFA] z [DFA][DFA] | %109
 z [DF_A][DFA] z [DFA][DFA] ||[K:Eb] [B,EG][B,EG][B,EG] [B,EG][B,EG][B,EG] | %111
 [B,DA][B,DA][B,DA] [B,DA][B,DA][B,DA] | [B,EG][B,EG][B,EG] [B,EG][B,EG][B,EG] | %113
 [B,DA][B,DA][B,DA] [B,DA][B,DA][B,DA] |"_dim." [B,EG]z[B,EG] [B,EG]z[B,EG] | D3 D2 C | %116
 B,z[B,EG] [B,EG]z[B,EG] | D3 D2 C |!mp! D z z z2 z | z6 | z6 | z6 |[K:bass]!pp! !//-!F,3 A,3 | %123
 !//-!G,3 E,3 | !//-!F,3 A,3 | !//-!G,3/2 E,3/2 !//-!_G,3/2 E,3/2 ||[K:C] !//-!^F,3 A,3 | %127
 !//-!^G,3 E,3 | !//-!^F,3 A,3 | !//-!^G,3/2 E,3/2 !//-!=G,3/2 E,3/2 | !//-!G,3 _B,3 | %131
 !//-!F,3 _B,3 | !//-!^G,3 =B,3 | !//-!^F,3 B,3 ||[K:E] E, z z z2 z | E, z z z2 z | E, z z z2 z | %137
 z6 | z6 | z6 | z6 | z6 |[K:treble] z6 | z6 | z6 | z6 ||[M:2/4] z4 | z4 | z4 | z4 | z4 | z4 | z4 | %153
 z4 ||[K:C][M:6/8]!p! z [B,GB][B,GB] [B,GB][A,^FA][A,FA] | [B,GB][A,^FA][A,FA] [B,GB][A,FA][A,FA] | %156
 z [D=F][DF] [DF][^CE][CE] | [DF][^CE][CE] [DF][CE][CE] | z [B,GB][B,GB] [B,GB][A,^FA][A,FA] | %159
 [B,GB][A,^FA][A,FA] [B,GB][A,FA][A,FA] | z [D=F][DF] [DF][^CE][CE] | [DF][^CE][CE] [DF][CE][CE] | %162
 z2 ^F F/G/.F.^G | ^G/A/.G.A A/B/.A.^G | ^G/A/.G.A A/B/.A.B | B/c/.B.c c/=d/.c.B | %166
"_cresc." B/c/.B.c c/d/.c.d | d/_e/.d.e e/f/.e.[Bd] | .[Bd]z.[c_e] .[ce]z.[df] | %169
 .[df]z.[_e^f] .[ef]!ff! z2 | z6 |!ff! C/D/_E/=F/^F/ z/ [_B,_E_B]3 | z6 | %173
!ff! C/D/_E/=F/^F/ z/ [_B,_E_B]3 |!ff! C/D/_E/=F/^F/ z/ !^![_EF]3 | z6 | z6 | !fermata!z6 || z6 | %179
 z6 | z6 | z6 | z6 | z6 | z6 | z6 |!p! z [CE][CE] z [CE][CE] | z [CE][CE] z B,C | %188
 z [C_E][CE] z [CE][CE] | z [C_E][CE] z B,C | z!<(! [_B,_EG][B,EG] [B,EG][B,EG][B,EG] | %191
 z [_B,_E^F][B,EF] [B,EF][B,EF][B,EF]!<)! ||[K:B]!mf! z!>(! [^A,=E][A,E][A,F][A,E][A,E]!>)! | %193
!p! [A,E] z .[A,E].[A,E] z .[B,E] |.[B,E] z .[CE].[CE] z .[B,E] |.[B,E] z .[CE].[CE] z .[G,E] | %196
.[G,E] z .[=A,E].[A,E] z .[^A,E] |[A,E] z z z2 z ||[K:C]!p! z [CE][CE] z [CE][CE] | %199
 z [CE][CE] z B,C | z [C_E][CE] z [CE][CE] | z [C_E][CE] z B,C | %202
 z!<(! [_B,_EG][B,EG] [B,EG][B,EG][B,EG] | z [_B,_E^F][B,EF] [B,EF][B,EF][B,EF]!<)! || %204
[K:B]!mf! z!>(! [^A,=E][A,E][A,F][A,E][A,E]!>)! |!p! [A,E] z .[A,E].[A,E] z .[B,E] | %206
.[B,E] z .[CE].[CE] z .[B,E] |.[B,E] z .[CE].[CE] z .[G,E] |.[G,E] z .[=A,E].[A,E] z .[^A,E] | %209
[A,E] z z z2 z | z6 |[K:bass] z2 z E3 | A,2 z z2 z | z2 z ^E3 | A,2 z4 | z6 | z6 |!<(! F6!<)! | %218
!mp! =G6- | G3!p! A,3 |!mp!!>(! !tenuto!=G6!>)! |!pp! !tenuto!F2 z4 |!p! z F,D DB,F, | %223
 z F,D DB,F, | z =G,^D DB,G, | z =G,D DB,G, | z F,D DB,F, | z F,D DB,F, | z =G,D DB,G, | %229
 z =G,D DB,G, | z F,D DB,F, | z =G,D DB,G, | z F,D DB,F, | z =G,D DB,G, | %234
[K:treble] z2 z !//-!D3/2 =G3/2 | !//-!D3/2 =G3/2 z z2 | z2 z !//-!D3/2 =G3/2 | %237
 !//-!D3/2 =G3/2 z z2 | z ^G,[E^G] [EG]B,G, | z G,[EG] [EG]B,G, | z G,[EG] [EG]=CG, | %241
 z G,[EG] [EG]=CG, | z G,[EG] [EG]B,G, | z G,[EG] [EG]B,G, | z G,[EG] [EG]=CG, | %245
 z G,[EG] [EG]=CG, | z G,[EG] [EG]B,G, | z G,[EG] [EG]=CG, | z G,[EG] [EG]B,G, | %249
 z G,[EG] [EG]=CG, |!<(! z2 z !//-![=C=F]3/2 ^G3/2 | !//-![=C=F]3/2 ^G3/2 z2 z | %252
 z2 z !//-![^B,^D]3/2 G3/2 | !//-![^B,^D]3/2 G3/2 z z2!<)! |!p! z G,[CG] [^EG]CG, | %255
 z =A,[C=A] [^EA]CA, | z =A,[=D=A] [^EA]DA, | [^E=A]=D=A, [EA]DA, | z2 z !//-!=D3/2 ^E3/2 | %259
 !//-!=D3/2 ^E3/2 z2 z | z2 z !//-!=D3/2 ^E3/2 | !//-!=D3/2 ^E3/2 z2 z | %262
!p! z!<(! ^G,[C^G] [^EG]CG, | z =A,[C=A] [^EA]CA,!<)! |!p! z =A,[=D=A] [^EA]DA, | %265
!>(! [^E=A]=D=A, [EA]D!>)!!p!A, | z2 z !//-!=D3/2 ^E3/2 | !//-!=D3/2 ^E3/2 z z2 | %268
 z2 z !//-!=D3/2 ^E3/2 | !//-!=D3/2 ^E3/2 z z2 |!p! z [=D^G][DG] z [DG][DG] | %271
 z [C=G][CG] z [CG][CG] | z [=CF][CF] z [CF][CF] | z [B,=F][B,F] z [B,F][B,F] | %274
 z [B,E][B,E] z [B,E][B,E] | z [B,E][B,E] z2 z | z [B,E][B,E] z [B,E][B,E] | z [B,E][B,E] z2 z | %278
 z [^A,E][A,E] z [A,E][A,E] | z [A,E][A,E] z [A,E][A,E] | z [A,E][A,E] z [A,E][A,E] | %281
 z [A,E][A,E] z [A,E][A,E] | z [A,E][A,E] z [A,E][A,E] | z [A,E][A,E] z [A,E][A,E] | %284
 z [A,E][A,E] z [A,E][A,E] | z [A,E][A,E] z [A,E][A,E] | z2 z [A,E] z2 | z2 z [A,E] z2 | z6 | z6 | %290
 z6 | [^B,E]3 [C^E]3 | z6 |!pp! [C^E]3 [=DF]3 | z6 | z6 | z6 | z6 |[K:bass]!mf! ^D6- | D3 F,3 | %300
 =G,6- | G,3 B,3 | x6 | D3 F,3 | =G,6- | G,3 B,3 | D3 F3 | =G3 B,/C/B,/C/B,/C/ | D3 F3 | %309
 =G3 B,/C/B,/C/B,/C/ | D z z[K:treble]!pp! =G/F/G/F/G/F/ | !//-!=G3 F3 | !//-!=G3 F3 | %313
 =G/F/G/F/G/F/ G z z |!mf! ^G6- | G3 B,3 | =C6- | C3 E3 | [B,G-]6 | G3 B,3 | =C6- | C3 E3 | G3 B3 | %323
 =c3 E/F/E/F/E/F/ | G3 B3 | =c3 E/F/E/F/E/F/ | .G z z!pp! =c/B/c/B/c/B/ | !//-!=c3 B3 | %328
 !//-!=c3 B3 | =c/B/c/B/c/B/ c z z | x6 | x6 | x6 | x6 |!p! z [=A,=D=F][A,DF] [A,DF][A,DF][A,DF] | %335
 z [=A,=D=F][A,DF] [A,D][A,D][A,D] | z [=A,=D=F][A,DF] [A,DF][A,DF][A,DF] | %337
 z [=A,=D=F][A,DF] [A,D][A,D][A,D] | x6 | x6 | x6 | x6 | %342
[K:B]!p! z [=A,=D=F][A,DF] [A,DF][A,DF][A,DF] | z [=A,=D=F][A,DF] [A,D][A,D][A,D] | %344
 z [=A,=D=F][A,DF] [A,DF][A,DF][A,DF] | z [=A,=D=F][A,DF] [A,D][A,D][A,D] ||[K:C] x6 | x6 | x6 | %349
 x6 |!mp! z [_B,_E_G][B,EG] [B,EG][B,EG][B,EG] | z [_B,_E_G][B,EG] [B,E][B,E][B,E] | %352
 z [_B,_E_G][B,EG] [B,EG][B,EG][B,EG] | z [_B,_E_G][B,EG] [B,E][B,E][B,E] | x6 | x6 | x6 | x6 | %358
!mp! z [_B,_E_G][B,EG] [B,EG][B,EG][B,EG] | z [_B,_E_G][B,EG] [B,E][B,E][B,E] | %360
 z [_B,_E_G][B,EG] [B,EG][B,EG][B,EG] | z [_B,_E_G][B,EG] [B,E][B,E][B,E] | x6 | x6 | %364
 x3 .[_E=B].[E=B].[E=B] | .[_E_B]z.[E_B] .[E=B] z z | x6 | x6 | x3 .[Ec].[Ec].[Ec] | %369
 .[EB]z.[EB] .[Ec] z2 |!ff! !>![CFc][CFA][CFA][CFA][CFA][CFA] | [CFA] z z C3 | !^!_DDDDDD | %373
 _D z z [DF]2 z | !>![CFc][CFA][CFA][CFA][CFA][CFA] | [CFA] z z C3 | !^!_DDDDDD | _D z z [DF]2 z | %378
 [CFA]2 z C2 z | _D2 z [DF]2 z | [CFA]2 z C2 z | _D2 z [DF]2 z || %382
[K:Eb] [_D_G_d][DGB][DGB][DGB][DGB][DGB] | [_D_GB] z z _D3 | =DDDDDD | =D z z [D_G]2 z | %386
 [_D_G_d][DGB][DGB][DGB][DGB][DGB] | [_D_GB] z z _D3 | =DDDDDD | =D z z [D_G]2 z | %390
 [_D_GB]2 z _D2 z | =D z z [D_G]2 z | [_D_GB]2 z _D2 z | =D2 z [D_G]2 z | %394
!fff! [_D_G_d] z z{/[Ee]} !>![Dd]3 |{/[Ee]} !>![_D_d]3{/[Ee]} !>![Dd]3 | %396
{/[Ee]} !>![_D_d]3{/[Ee]} !>![Dd]3 |{/[Ee]} !>![_D_d]3{/[Ee]} !>![Dd]3 |{/[Ee]} !>![_D_d]3 z2 z | %399
 z6 | z6 | z6 | z6 | z6 | z6 | z6 |!p! z [B,_GB][B,GB] ([B,GB].[A,FA])[A,FA] | %407
 ([B,_GB].[A,FA])[A,FA] ([B,GB].[A,FA])[A,FA] | z [_D_F][DF] ([DF].[CE])[CE] | %409
 ([_D_F].[CE])[CE] ([DF].[CE])[CE] | z [B,_GB][B,GB] ([B,GB].[A,FA])[A,FA] | %411
 ([B,_GB].[A,FA])[A,FA] ([B,GB].[A,FA])[A,FA] | z [_D_F][DF] ([DF].[CE])[CE] | %413
 ([_D_F].[CE])[CE] ([DF].[CE])[CE] | z2!p! .=F F/G/.F.G | G/_A/.G.A A/B/.A.G | G/A/.G.A A/B/.A.B | %417
 B/_c/.B.c c/_d/.c.B |"_cresc." B/_c/.B.=B B/^c/.B.c | ^c/d/.c.d d/_e/.d.c | %420
 .[_B^c]z.[=Bd] .[Bd]z.[^c=e] | .[^c=e]z.[df] .[df] !fermata!z !fermata!z | %422
!ff! z [A,CG][A,CG] !^![A,CG][A,CG][A,CG] | z [A,CG][A,CG] !^![CEB][CEB][CEB] | %424
 z [B,EG][B,EG] !>![CEG][B,EG][B,EG] | z [B,EG][B,EG] !>![CEG][B,EG][B,EG] | %426
!ff! z [A,CG][A,CG] !^![A,CG][A,CG][A,CG] | z [A,CG][A,CG] !^![CEB][CEB][CEB] | %428
 z [B,EG][B,EG] !>![CEG][B,EG][B,EG] | z [B,EG][B,EG] !>![CEG][B,EG][B,EG] | %430
 z [B,FA][B,FA] z [B,^F=A][B,FA] | z [B,GB][B,GB] z [B,^F=A][B,FA] | %432
 z [B,FA][B,FA] z [B,^F=A][B,FA] | z [B,GB][B,GB] z [E^F=A][EFA] |!f! !//-!^F3 =A3 | !//-!=F3 =A3 | %436
 !//-!_E3 ^F3 | !//-!D3/2 ^F3/2 !//-!D3/2 B,3/2 |[K:bass] !//-!^F,3 =A,3 | !//-!=F,3 =A,3 | %440
 !//-!_E,3 ^F,3 | !//-!D,3/2 ^F,3/2 D, z z |[K:treble] ^FFF =FFF | !^!G6 | ^F2 x4 | =CCC =B,B,B, | %446
 x6 | !^!=B,6 | _B,2 x4 | z6 |[K:bass]!pp! !//-!F,3 A,3 | !//-!E,3 G,3 | !//-!F,3 A,3 | %453
 !//-!E,3/2 G,3/2 !//-!E,3/2 _G,3/2 | !//-!^F,3 =A,3 | !//-!=E,3 ^G,3 | !//-!^F,3 =A,3 | %457
 !//-!=E,3/2 ^G,3/2 !//-!E,3/2 =G,3/2 | !//-!G,3 _B,3 | !//-!F,3 B,3 | !//-!^G,3 B,3 | %461
 !//-!^F,3 =B,3 |!p! !//-!^F,3/2 =B,3/2 ^E,2 F, | !//-!^G,3/2 =B,3/2 !//-!=A,3/2 B,3/2 | %464
!p! !//-!^F,3/2 =B,3/2!<(! ^E,2 F, | =A,2 ^G, ^F,2 =F,!<)! |!mf! =D,3 C,2 D, | %467
 !//-!E,3/2 B,3/2 !//-!G,3/2 B,3/2 | !//-!D,3/2 B,3/2 C,2 D, | !//-!E,3/2 B,3/2 !//-!_G,3/2 B,3/2 | %470
"_cresc." !//-!^D,3/2 =B,3/2 ^C,2 D, | !//-!=E,3/2 =B,3/2 !//-!^G,3/2 B,3/2 | %472
 !//-!^D,3/2 =B,3/2 ^C,2 D, | !//-!=E,3/2 =B,3/2 !//-!=G,3/2 B,3/2 | !//-!=E,3/2 =C3/2 D,2 E, | %475
 !//-!E,3/2 B,3/2 !//-!G,3/2 B,3/2 | !//-!F,3/2 _D3/2 E,2 F, | !//-!_G,3/2 E3/2 !//-!A,3/2 E3/2 || %478
[K:C][K:treble]!ff! [B,^D^FB][B,DFB][B,DFB] !^![B,DFB][B,DFB][B,DFB] | %479
 [B,E^GB][B,EGB][B,EGB] !^![B,EGB][B,EGB][B,EGB] | z [=D=F_A][DFA] z [DFA][DFA] | %481
 z [DF_A][DFA] z [DFA][DFA] |!ff! [B,^D^FB][B,DFB][B,DFB] !^![B,DFB][B,DFB][B,DFB] | %483
 [B,E^GB][B,EGB][B,EGB] !^![B,EGB][B,EGB][B,EGB] | z [=D=F_A][DFA] z [DFA][DFA] | %485
 z [DF_A][DFA] z [DFA][DFA] ||[K:Eb] [B,EG][B,EG][B,EG] [B,EG][B,EG][B,EG] | %487
 [B,DA][B,DA][B,DA] [B,DA][B,DA][B,DA] | [B,EG][B,EG][B,EG] [B,EG][B,EG][B,EG] | %489
 [B,DA][B,DA][B,DA] [B,DA][B,DA][B,DA] | [B,EG][B,EG][B,EG] [B,EG][B,EG][B,EG] | D3- DCB, | %492
 [B,EG][B,EG][B,EG] [B,EG][B,EG][B,EG] | D3- DCB, |[K:bass]!ff! .A,.G,.F, .=E,.F,.D, | %495
 .A,.G,.F, .=E,.F,._D, | .A,.G,.F, .=E,.F,.C, | .=E,.F,._C, .E,.F,.C, | z2 z _C,2 _D, | %499
 !wedge!E,2 z _C,2 _D, | !wedge!E,2 z _C,2 _D, | !wedge!E,2 z _C,2 _D, | !wedge!E,2 z .E,.F,.G, | %503
 .G,.A,.B, .B,.C.D |!<(! .E,.F,.G, .G,.A,.B, | .B,.C.D .E z z!<)! | %506
!fff! E,/D,/E,/F,/G,/B,/ E,/D,/E,/F,/G,/B,/ | E,/D,/E,/F,/G,/B,/ E,/D,/E,/F,/G,/B,/ | %508
 E,/D,/E,/F,/G,/_C/ E,/D,/E,/F,/G,/C/ | E,/D,/E,/F,/G,/_C/ E,/D,/E,/F,/G,/C/ | %510
 E,/D,/E,/F,/G,/B,/ E,/D,/E,/F,/G,/B,/ | E,/D,/E,/F,/G,/B,/ E,/D,/E,/F,/G,/B,/ | %512
 E,/D,/E,/F,/G,/_C/ E,/D,/E,/F,/G,/C/ | E,/D,/E,/F,/G,/_C/ E,/D,/E,/F,/G,/C/ | %514
 E,/D,/E,/F,/G,/B,/ E,/D,/E,/F,/G,/B,/ | E,/D,/E,/F,/G,/_C/ E,/D,/E,/F,/G,/C/ | %516
 E,/D,/E,/F,/G,/B,/ E,/D,/E,/F,/G,/B,/ | E,/D,/E,/F,/G,/_C/ E,/D,/E,/F,/G,/C/ | %518
 E,/F,/E,/F,/A,/=C/ E,/F,/E,/F,/A,/C/ | E,/F,/E,/F,/A,/_D/ E,/F,/E,/F,/A,/D/ | %520
 E,/F,/E,/F,/A,/=C/ E,/F,/E,/F,/A,/C/ | E,/F,/E,/F,/A,/_D/ E,/F,/E,/F,/A,/D/ | %522
 E,/F,/E,/F,/=A,/^C/ E,/F,/E,/F,/A,/C/ | E,/F,/E,/F,/=A,/=D/ E,/F,/E,/F,/A,/=D/ | %524
 E,/F,/E,/F,/=A,/^C/ E,/F,/E,/F,/A,/C/ | E,/F,/E,/F,/=A,/D/ E,/F,/E,/F,/A,/D/ | %526
 !arpeggio![F,B,D] z z [F,B,D][F,B,D][F,B,D] | [F,B,D]6 | %528
 [F,B,D][F,B,D][F,B,D] !>![F,B,DF][F,B,DF][F,B,DF] | [F,B,DF]6 | %530
 !>![F,B,DF][F,B,DF][F,B,DF][K:treble] [B,DFB][B,DFB][B,DFB] | !/![B,DFB]6 | !/![B,DFB]6 | %533
 !/![B,DFB]6 | [B,DFB] z z z2 z |!ff! [B,DFB] z z z2 z | [=B,=B][B,B][B,B][B,B][B,B][B,B] | %537
 [=B,=B][B,B][B,B][B,B][B,B][B,B] | [=B,=B]2 z !wedge!F2 z | !wedge!=B,2 z[K:bass] !wedge!F,2 z | %540
 =B,B,B,B,B,B, | =B,B,B,B,B,B, | =B,2 z F,2 z | =B,,2 z F,2 z | =B,,2 z F,2 z | =B,,2 z F,2 z | %546
 [=B,,=B,][B,,B,][B,,B,][B,,B,][B,,B,][B,,B,] | [=B,,=B,][B,,B,][B,,B,][B,,B,][B,,B,][B,,B,] | %548
 !wedge![=B,,=B,]2 z !wedge![B,,B,] z2 | !wedge![=B,,=B,]2 z !wedge![B,,B,] z2 | !^![=B,,=B,]6- | %551
 !fermata![B,,B,]6 |] %552
V:6
 z6 | z2 z!ff! B,/^C/D/E/F/ z/ |!ped! z6 | z2 z!p! .B,2 z | .F2!ped-up! z .B,2 z | .F2 z .B,2 z | %6
 .F2 z z2 z | z2 z!ff! B,/^C/D/E/^F/ z/ |!ped! z6 | z2 z!p! .B,2 z | .^F2!ped-up! z .B,2 z | %11
 .^F2 z .B,2 z | .^F2 z z2 z | z2 z!p! B,/^C/^D/^F/ z ||[K:E] A,/B,/C/D/F/ z/ z2 z | z6 | %16
 D/F/A/B/c/ z/ z2 z | z6 | A/B/c/d/f/ z/ z2 z | z6 |!ped! F/A/c/d/ z d/f/ z!ped-up! z | %21
!ped! F/A/=c/d/ z d/f/ z!ped-up! z |!ped! F/A/^c/d/ z d/f/ z!ped-up! z | %23
!ped! F/A/=c/d/ z d/f/ z z | F/A/=c/d/ z F/A/B/=c/_e/ z/ | F/A/B/=c/_e/ z/ F/A/B/c/e/!ped-up! z/ || %26
[K:Eb][K:bass]!ped! [E,,E,]2 z z2 z | [E,,E,]2 z z2!ped-up! z |!ped! [E,,E,]2 z z2 z | %29
 [E,,E,]2 z z2!ped-up! z |!ped! [E,,E,]2 z z2 z | [E,,E,]2 z z2!ped-up! z |!ped! [E,,E,]2 z z2 z | %33
 [E,,E,]2 z z2!ped-up! z |!ped! [E,,E,]2 z!ped-up! [^F,,^F,]2 z | %35
!ped! [B,,B,]2 z!ped-up! [^F,,^F,]2 z |!ped! [E,,E,]2 z!ped-up! [^F,,^F,]2 z | %37
!ped! [B,,B,]2 z!ped-up! [^F,,^F,]2 z |!ped! !^!^F,/^E,/F,/E,/F,/E,/ F,/E,/F,/!ped-up!E,/.F,/ z/ | %39
!ped! !^!=F,/=E,/F,/E,/F,/E,/ F,/E,/!ped-up!F,/E,/.F,/ z/ | %40
!ped! !^!_E,/D,/E,/D,/E,/D,/ E,/D,/!ped-up!E,/D,/.E,/ z/ | %41
!ped! !^!D,/^C,/D,/C,/D,/C,/ D,/C,/!ped-up!.D,.B,, | %42
!ped! !^!^F,,/^E,,/F,,/E,,/F,,/E,,/ F,,/!ped-up!E,,/F,,/E,,/.F,,/ z/ | %43
!ped! !^!=F,,/=E,,/F,,/E,,/F,,/E,,/ F,,/!ped-up!E,,/F,,/E,,/.F,,/ z/ | %44
!ped! !^!_E,,/D,,/E,,/D,,/E,,/D,,/ E,,/!ped-up!D,,/E,,/D,,/.E,,/ z/ | %45
!ped! !^!D,,/^C,,/D,,/C,,/D,,/C,,/!ped-up! .D,, z2 | [_D,,_D,]z[D,,D,] [D,,D,]z[D,,D,] | %47
 [_D,,_D,]z[D,,D,] [D,,D,]2 z | [A,,,A,,]z[A,,A,] [A,,A,]z[A,,A,] | [A,,A,]z[A,,A,] [A,,A,]2 z | %50
 [_D,,_D,]z[D,,D,] [D,,D,]z[D,,D,] | [_D,,_D,]z[D,,D,] [D,,D,]2 z | %52
 [A,,,A,,]z[A,,A,] [A,,A,]z[A,,A,] | [A,,A,]z[A,,A,] [A,,A,]2 z | z2 .A, .A,z.B, | .B,z._C .Cz.B, | %56
 .B,z.=B, .B,z.^C | .^Cz.D .Dz.C | .^Cz.D .Dz.=E | =EzF FzE | =EzF FzG | GzA A z2 | %62
!ped! !//-!E,,3 E,3 | !//-!E,,3 E,3!ped-up! |!ped! !>!E,,2 z !>![E,,E,]2 z | %65
 !>![E,,E,]2 z !>![E,,E,]2 z!ped-up! |!ped! !//-!E,,3 E,3 | !//-!E,,3 E,3!ped-up! | %68
!ped! !>!E,,2 z !>![E,,E,]2 z | !>![E,,E,]2 z !>![E,,E,]2 z!ped-up! | %70
!ped! !>![E,,E,]2 z !>![^F,,^F,]2!ped-up! z |!ped! !>![B,,B,]2 z !>![^F,,^F,]2!ped-up! z | %72
!ped! !>![E,,E,]2 z !>![^F,,^F,]2!ped-up! z |!ped! !>![B,,B,]2 z !>![^F,,^F,]2 z!ped-up! | %74
!ped! !//-!^F,3 =A,3!ped-up! |!ped! !//-!=F,3 =A,3!ped-up! |!ped! !//-!_E,3 ^F,3!ped-up! | %77
!ped! D,/^F,/D,/F,/D,/F,/ D,/B,,/D,/B,,/D,/B,,/!ped-up! |!ped! !//-!^F,,3 =A,,3!ped-up! | %79
!ped! !//-!=F,,3 =A,,3!ped-up! |!ped! !//-!E,,3 ^F,,3!ped-up! | %81
!ped! !//-!D,,3/2 ^F,,3/2!ped-up! D,, z z | ^F,F,F, =F,F,F, | !^!G,6 | ^F,2 z x x2 | x6 | %86
 _B,B,B, =A,A,A, | _A,A,A, G,G,G, | _G,G,G,"^dim." F,F,F, | =E,E,E, _E,E,E, | %90
"_un poco marcato" !^![D,,D,]3 !^![C,,C,]2 !^![D,,D,] | !^![E,,E,]3 !^![B,,,B,,]2 z | %92
 !^![D,,D,]3 !^![C,,C,]2 !^![D,,D,] | !^![E,,E,]3 !^![B,,,B,,]2 z | %94
 !^![^D,,^D,]3 !^![^C,,^C,]2 !^![D,,D,] | !^![=E,,=E,]3 !^![=B,,,=B,,]2 z | %96
 !^![^D,,^D,]3 !^![^C,,^C,]2 !^![D,,D,] | !^![=E,,=E,]3 !^![=B,,,=B,,]2 z | %98
 !^![=E,,=E,]3 !^![D,,D,]2 !^![E,,E,] | !^![F,,F,]3 !^![G,,G,]2 z || %100
[K:C] !^![F,,F,]3 !^![^D,,^D,]2 !^![^E,,^E,] | !^![^F,,^F,]3 !^![^G,,^G,]2 z | %102
!ped! [B,,^F,A,][B,,F,A,][B,,F,A,] !^![B,,F,A,]3!ped-up! | %103
!ped! [^G,,E,^G,][G,,E,G,][G,,E,G,] !^![G,,E,G,]3!ped-up! | !^![B,,B,]3 [_B,,_B,]2 z | %105
 !^![=B,,=B,]3 [_B,,_B,]2 z |!ped! [=A,,^F,=A,][A,,F,A,][A,,F,A,] !^![A,,F,A,]3!ped-up! | %107
 [^G,,E,^G,][G,,E,G,][G,,E,G,] !^![G,,E,G,]3 | !^![B,,B,]3 [_B,,_B,]2 z | %109
 !^![=B,,=B,]3 [_B,,_B,]2 z ||[K:Eb]!ped! [E,,E,][E,,E,][E,,E,] [E,,E,][E,,E,][E,,E,]!ped-up! | %111
!ped! [E,,E,]2 z [E,,B,,]2 z!ped-up! |!ped! [E,,E,][E,,E,][E,,E,] [E,,E,][E,,E,][E,,E,]!ped-up! | %113
!ped! [E,,E,]2 z [E,,B,,]2 z!ped-up! | [E,,E,]2 z z2 z | z!mf! .E,,.B,, .E,.B,,.E, | z6 | %117
 z .E,,.B,, .E,.B,,.E, | z6 | z6 | z6 | z6 |!p!!ped! B,,6!ped-up! |!ped! B,,6!ped-up! | %124
!ped! B,,6!ped-up! |!ped! B,,3-!ped-up!!ped! B,, z z!ped-up! ||[K:C]!ped! =B,,6!ped-up! | %127
!ped! B,,6!ped-up! |!ped! =B,,6!ped-up! |!ped! B,,3-!ped-up!!ped! B,, z z!ped-up! | %130
!ped! C,6!ped-up! |!ped! D,3 ^C,3!ped-up! |!ped! ^C,6!ped-up! |!ped! ^D,6!ped-up! || %134
[K:E] E,, z z z2 z | E,, z z z2 z | E,, z z z2 z | z6 | z6 | z6 | z6 | z6 | z6 | z6 | z6 | z6 || %146
[M:2/4] z4 | z4 | z4 | z4 | z4 | z4 | z4 | z4 ||[K:C][M:6/8] [D,,D,]z[D,,D,] [D,,D,]z[D,,D,] | %155
 [D,,D,]z[D,,D,] [D,,D,] z z | [A,,,A,,]z[A,,A,] [A,,A,]z[A,,A,] | [A,,A,]z[A,,A,] [A,,A,] z z | %158
 [D,,D,]z[D,,D,] [D,,D,]z[D,,D,] | [D,,D,]z[D,,D,] [D,,D,] z z | %160
 [A,,,A,,]z[A,,A,] [A,,A,]z[A,,A,] | [A,,A,]z[A,,A,] [A,,A,] z z | z2 A, A,zB, | B,zC CzB, | %164
 B,zC CzD | Dz_E EzD | Dz_E EzF | Fz^F Fz[K:treble]=F | .Fz.^F .Fz.^G | .^Gz.A .A z2 |[K:bass] z6 | %171
!ped! C,/D,/_E,/=F,/^F,/ z/!ped-up! [^F,,_E,F,]3 | z6 | %173
!ped! C,/D,/_E,/=F,/^F,/ z/!ped-up! [^F,,_E,F,]3 | z2 z !^!^F,3 | z6 | z6 | !fermata!z6 || z6 | %179
 z6 | z6 | z6 | z6 | z6 | z6 | z6 | !>!E,3 !>!A,3 | !>!G,3 !>!E,3 | !>!_E,3 !>!A,3 | %189
 !>!G,3 !>!_E,3 |!ped! [_B,,G,]6!ped-up! |!ped! [_B,,^F,]6!ped-up! ||[K:B]!ped! [F,,F,]6!ped-up! | %193
 z2 z [F,,F,]2 z | z2 z [F,,F,]2 z | z2 z [F,,F,]2 z | z2 z [F,,F,]2 z | [F,,F,] z z z2 z || %198
[K:C] !>!E,3 !>!A,3 | !>!G,3 !>!E,3 | !>!_E,3 !>!A,3 | !>!G,3 !>!_E,3 |!ped! [_B,,G,]6!ped-up! | %203
!ped! [_B,,^F,]6!ped-up! ||[K:B]!ped! [F,,F,]6!ped-up! | z2 z [F,,F,]2 z | z2 z [F,,F,]2 z | %207
 z2 z [F,,F,]2 z | z2 z [F,,F,]2 z | [F,,F,] z z z2 z | z6 |!ped! z6 | z6!ped-up! |!ped! z6 | %214
 z6!ped-up! | z6 | z6 | z6 |!ped! z6 | z6!ped-up! | z6 | z6 |!ped! !>![B,,,B,,]6 | z6!ped-up! | %224
!ped! !>!B,,6 | z6!ped-up! |!ped! !>![B,,,B,,]6 | z6!ped-up! |!ped! !>!B,,6 | z6!ped-up! | %230
!ped! !>![B,,,B,,]2 z z2 z!ped-up! |!ped! !>!B,,2 z z2 z!ped-up! | %232
!ped! !>![B,,,B,,]2 z z2 z!ped-up! |!ped! !>!B,,2 z z2 z!ped-up! |!ped! z6 | z6!ped-up! |!ped! z6 | %237
 z6!ped-up! |!ped! !>![E,,E,]6 | z6!ped-up! |!ped! !>![E,,E,]6 | z6!ped-up! |!ped! !>![E,,E,]6 | %243
 z6!ped-up! |!ped! !>![E,,E,]6 | z6!ped-up! |!ped! !>![E,,E,]2 z z2 z!ped-up! | %247
!ped! !>![E,,E,]2 z z2 z!ped-up! |!ped! !>![E,,E,]2 z z2 z!ped-up! | %249
!ped! !>![E,,E,]2 z z2 z!ped-up! |!ped! z6 | z6!ped-up! |!ped! z6 | z6!ped-up! | %254
!ped! !>![^E,,^E,]2 z z2 z!ped-up! |!ped! !>![^E,,^E,]2 z z2 z!ped-up! |!ped! !>![^E,,^E,]6- | %257
 [E,,E,]2 z z2 z!ped-up! |!ped! z6 | z6!ped-up! |!ped! z6 | z6!ped-up! | %262
!ped! !>![^E,,^E,]2 z z2 z!ped-up! |!ped! !>![^E,,^E,]2 z z2 z!ped-up! |!ped! !>![^E,,^E,]6- | %265
 [E,,E,]2 z!ped-up! z2 z |!ped! z6 | z6!ped-up! |!ped! z6 | z6!ped-up! |!ped! ^E,3 B,3!ped-up! | %271
!ped! =E,3 ^A,3!ped-up! |!ped! ^D,3 =A,3!ped-up! |!ped! !>!=D,3 !>!^G,3!ped-up! | %274
!ped! !>!^C,3 !>!=G,3 | !>!=G,3 z2!ped-up! z |!ped! !>!^C,3 !>!=G,3 | !>!=G,3 z2!ped-up! z | %278
!ped! !>!C,3 !>!F,3 | !>!C,3!ped-up! !>!F,3 |!ped! !>!^B,,3 !>!F,3 | !>!^B,,3!ped-up! !>!F,3 | %282
!ped! !>!C,3 !>!F,3 | !>!C,3 !>!F,3!ped-up! | !>!^B,,3 !>!F,3 | !>!^B,,3 !>!F,3 | %286
 z2 z [^B,,F,] z2 | z2 z [^B,,F,] z2 | z6 | z6 | z6 | z6 | z6 | z6 | z6 | z6 | z6 | z6 | %298
!ped! [B,,,B,,]2 z z2 z | z6!ped-up! |!ped! B,,6 | z6!ped-up! | %302
!ped!x/8x/8[I:staff -1]x/8x/8-[I:staff +1] x/ x x x2 x | z6!ped-up! |!ped! B,,6 | z6!ped-up! | %306
!ped! [B,,,B,,]2 z z2!ped-up! z |!ped! [B,,,B,,]2 z z2!ped-up! z |!ped! [B,,,B,,]2 z z2!ped-up! z | %309
!ped! [B,,,B,,]2 z z2!ped-up! z | z2 z!ped! x x2 | z6!ped-up! |!ped! z6 | z6!ped-up! | %314
!ped! [E,,E,]2 z z2 z | z6!ped-up! |!ped! E,6 | z6!ped-up! |!ped! [E,,E,]2 z z2 z | z6!ped-up! | %320
!ped! E,6 | z6!ped-up! |!ped! [E,,E,]2 z z2 z!ped-up! |!ped! [E,,E,]2 z z2 z!ped-up! | %324
!ped! [E,,E,]2 z z2 z!ped-up! |!ped! [E,,E,]2 z z2 z!ped-up! | z2 z!ped! x x2 | z6!ped-up! | %328
!ped! z6!ped-up! |!ped! z6!ped-up! | %330
!p!!ped! ^E,,/!<(!C,/^E,/[I:staff -1]G,/C/^E/ G/E/C/G,/[I:staff +1]E,/C,/!ped-up! | %331
!ped! ^E,,/C,/^E,/[I:staff -1]=A,/!<)!!mp!C/^E/ =A/E/C/A,/[I:staff +1]E,/C,/!ped-up! | %332
!ped! =F,,/=D,/=F,/[I:staff -1]=A,/=D/=F/ =A/F/D/A,/[I:staff +1]F,/D,/ | %333
!>(! =F,,/=D,/=F,/[I:staff -1]=A,/=D/=F/ =A/F/D/A,/D/!>)!!pp!F/!ped-up! | %334
!ped![I:staff +1] =D,/=F,/D,/F,/D,/F,/D,/F,/D,/F,/D,/F,/ | %335
 =A,,/=F,/A,,/F,/A,,/F,/ =F,,/F,/F,,/F,/F,,/F,/!ped-up! | %336
!ped! =D,/=F,/D,/F,/D,/F,/D,/F,/D,/F,/D,/F,/ | %337
 =A,,/=F,/A,,/F,/A,,/F,/ =F,,/F,/F,,/F,/F,,/F,/!ped-up! | %338
!<(!!ped! ^E,,/C,/^F,/[I:staff -1]A,/D/^F/ A/F/D/A,/[I:staff +1]F,/D,/!ped-up! | %339
!ped! ^E,,/C,/^F,/[I:staff -1]=A,/C/^E/!<)!!mp! =A/E/B,/A,/[I:staff +1]E,/C,/!ped-up! | %340
!ped! =F,,/=D,/=F,/[I:staff -1]=A,/=D/=F/ =A/F/D/A,/[I:staff +1]F,/D,/ | %341
!>(! =F,,/=D,/=F,/[I:staff -1]=A,/=D/=F/ =A/F/!>)!!p!D/A,/D/F/!ped-up! | %342
[K:B]!ped![I:staff +1] =D,/=F,/D,/F,/D,/F,/D,/F,/D,/F,/D,/F,/ | %343
 =A,,/=F,/A,,/F,/A,,/F,/ =F,,/F,/F,,/F,/F,,/F,/!ped-up! | %344
!ped! =D,/=F,/D,/F,/D,/F,/D,/F,/D,/F,/D,/F,/ | %345
 =A,,/=F,/A,,/F,/A,,/F,/ =F,,/F,/F,,/F,/F,,/F,/!ped-up! || %346
[K:C]!ped! ^F,,/!<(!D,/^F,/[I:staff -1]A,/D/^F/ A/F/D/A,/[I:staff +1]F,/D,/!ped-up! | %347
!ped! ^F,,/D,/^F,/!<)!!mp![I:staff -1]_B,/D/^F/ _B/F/D/B,/[I:staff +1]^F,/D,/!ped-up! | %348
!ped! !>!_G,,/_E,/_G,/[I:staff -1]_B,/_E/_G/ _B/G/E/B,/[I:staff +1]G,/E,/ | %349
 !>!_G,,/_E,/_G,/[I:staff -1]_B,/_E/_G/ _B/G/E/B,/E/G/!ped-up! | %350
!ped![I:staff +1] _E,/_G,/E,/G,/E,/G,/E,/G,/E,/G,/E,/G,/ | %351
 _B,,/_G,/B,,/G,/B,,/G,/ _G,,/G,/G,,/G,/G,,/G,/!ped-up! | %352
!ped! _E,/_G,/E,/G,/E,/G,/E,/G,/E,/G,/E,/G,/ | %353
 _B,,/_G,/B,,/G,/B,,/G,/ _G,,/G,/G,,/G,/G,,/G,/!ped-up! | %354
!ped! ^F,,/!<(!D,/^F,/[I:staff -1]A,/D/^F/ A/F/D/A,/[I:staff +1]F,/D,/!ped-up! | %355
!ped! ^F,,/D,/^F,/!<)!!mf![I:staff -1]_B,/D/^F/ _B/F/D/B,/[I:staff +1]^F,/D,/!ped-up! | %356
!ped! !>!_G,,/_E,/_G,/[I:staff -1]_B,/_E/_G/ _B/G/E/B,/[I:staff +1]G,/E,/ | %357
 !>!_G,,/_E,/_G,/[I:staff -1]_B,/_E/_G/ _B/G/E/B,/E/G/!ped-up! | %358
!ped![I:staff +1] _E,/_G,/E,/G,/E,/G,/E,/G,/E,/G,/E,/G,/ | %359
 _B,,/_G,/B,,/G,/B,,/G,/ _G,,/G,/G,,/G,/G,,/G,/!ped-up! | %360
!ped! _E,/_G,/E,/G,/E,/G,/E,/G,/E,/G,/E,/G,/ | %361
 _B,,/_G,/B,,/G,/B,,/G,/ _G,,/G,/G,,/G,/G,,/G,/!ped-up! | %362
!ped!"^cresc." =G,,/_E,/=G,/[I:staff -1]_B,/_E/G/ _B/G/E/B,/[I:staff +1]G,/E,/!ped-up! | %363
!ped! G,,/_E,/G,/[I:staff -1]=B,/_E/G/ =B/G/E/B,/[I:staff +1]G,/E,/!ped-up! | %364
!ped! G,,/_E,/G,/[I:staff -1]_B,/_E/G/!ped-up![I:staff +1] .[G,=B,].[G,B,].[G,B,] | %365
 .[G,_B,]z.[G,B,] .[G,=B,] z z | %366
!ped! ^G,,/=E,/^G,/[I:staff -1]B,/=E/^G/ B/G/E/B,/[I:staff +1]G,/E,/!ped-up! | %367
!ped! ^G,,/E,/^G,/[I:staff -1]B,/E/^G/ B/G/E/B,/[I:staff +1]G,/E,/!ped-up! | %368
!ped! ^G,,/E,/^G,/[I:staff -1]B,/E/^G/!ped-up![I:staff +1] .[^G,C].[G,C].[G,C] | %369
 .[^G,B,]z.[G,B,] .[G,C] z2 |!ped! !>![A,,F,A,][A,,F,A,][A,,F,A,][A,,F,A,][A,,F,A,][A,,F,A,] | %371
 [A,,F,A,] z z!ped-up! [F,A,]3 |!ped! [F,A,][F,A,][F,A,][F,A,][F,A,][F,A,] | %373
 [F,A,] z z A,2!ped-up! z | !>![A,,F,A,][A,,F,A,][A,,F,A,][A,,F,A,][A,,F,A,][A,,F,A,] | %375
 [A,,F,A,] z z [F,A,]3 |!ped! [F,A,][F,A,][F,A,][F,A,][F,A,][F,A,] | [F,A,] z z A,2!ped-up! z | %378
!ped! [A,,F,A,]2 z [F,A,]2 z!ped-up! | [F,A,]2 z A,2 z | [A,,F,A,]2 z [F,A,]2 z | F,2 z F,2 z || %382
[K:Eb]!ped! [B,,_G,B,][B,,G,B,][B,,G,B,][B,,G,B,][B,,G,B,][B,,G,B,] | %383
 [B,,_G,B,] z z!ped-up! [_G,B,]3 |!ped! [_G,B,][G,B,][G,B,][G,B,][G,B,][G,B,] | %385
 [_G,B,] z z [G,B,]2 z!ped-up! |!ped! [B,,_G,B,][B,,G,B,][B,,G,B,][B,,G,B,][B,,G,B,][B,,G,B,] | %387
 [B,,_G,B,] z z!ped-up! [_G,B,]3 |!ped! [_G,B,][G,B,][G,B,][G,B,][G,B,][G,B,] | %389
 [_G,B,] z z [G,B,]2 z!ped-up! |!ped! [B,,_G,B,]2 z [_G,B,]2 z!ped-up! | %391
!ped! [_G,_C] z z C2 z!ped-up! |!ped! [B,,_G,B,]2 z [_G,B,]3!ped-up! | %393
!ped! [_G,B,]2 z [G,_C]2 z!ped-up! | [B,,_G,B,][B,,G,B,][B,,G,B,][B,,G,B,][B,,G,B,][B,,G,B,] | %395
 [=A,,_G,=A,][A,,G,A,][A,,G,A,] [A,,G,A,][A,,G,A,][A,,G,A,] | %396
 [B,,_G,B,][B,,G,B,][B,,G,B,][B,,G,B,][B,,G,B,][B,,G,B,] | %397
 [=A,,_G,=A,][A,,G,A,][A,,G,A,] [A,,G,A,][A,,G,A,][A,,G,A,] | [B,,_G,B,][B,,G,B,][B,,G,B,] z2 z | %399
 z6 | z6 | z6 | z6 | z6 | z6 | z6 | !>![_D,,_D,]z[D,,D,] [D,,D,]z[D,,D,] | %407
 [_D,,_D,]z[D,,D,] [D,,D,]2 z | !>![A,,,A,,]z[A,,A,] [A,,A,]z[A,,A,] | [A,,A,]z[A,,A,] [A,,A,]2 z | %410
 !>![_D,,_D,]z[D,,D,] [D,,D,]z[D,,D,] | [_D,,_D,]z[D,,D,] [D,,D,]2 z | %412
 !>![A,,,A,,]z[A,,A,] [A,,A,]z[A,,A,] | [A,,A,]z[A,,A,] [A,,A,]2 z | z2 A, A,zB, | B,z_C CzB, | %416
 B,z=B, B,z^C | ^C z D D z ^C | ^C z D D z =E | =E z F F z E | =E z F F z G | G z A A z z | %422
!ff!!ped! !//-!E,,3 E,3 |!ff! !//-!E,,3 E,3!ped-up! |!ped! .E,,2 z .[E,,E,]2 z | %425
 .[E,,E,]2 z .[E,,E,]2!ped-up! z |!ff!!ped! !//-!E,,3 E,3 |!ff! !//-!E,,3 E,3!ped-up! | %428
!ped! .E,,2 z .[E,,E,]2 z | .[E,,E,]2 z .[E,,E,]2!ped-up! z | %430
!ped! [E,,E,]2 z [^F,,^F,]2!ped-up! z |!ped! [B,,B,]2 z [^F,,^F,]2!ped-up! z | %432
!ped! [E,,E,]2 z [^F,,^F,]2!ped-up! z |!ped! [B,,B,]2 z [^F,,^F,]2!ped-up! z | %434
!ped! !//-!^F,3 =A,3!ped-up! |!ped! !//-!=F,3 =A,3!ped-up! |!ped! !//-!_E,3 ^F,3!ped-up! | %437
!ped! !//-!D,3/2 ^F,3/2 !//-!D,3/2 B,,3/2!ped-up! |!ped! !//-!^F,,3 =A,,3!ped-up! | %439
!ped! !//-!=F,,3 =A,,3!ped-up! |!ped! !//-!_E,,3 ^F,,3!ped-up! | !//-!D,,3/2 ^F,,3/2 D,, z z | %442
 ^F,F,F, =F,F,F, | !^!G,6 | ^F,2 x4 | =C,C,C, =B,,B,,B,, | _B,B,B, =A,A,A, | _A,A,A, G,G,G, | %448
 _G,G,G,"^dim." F,F,F, | [=E,,=E,][E,,E,][E,,E,] [_E,,_E,][E,,E,][E,,E,] |!p!"_marcato" B,,6 | %451
 B,,6 | B,,6 | B,,6 | =B,,6 | =B,,6 | =B,,6 | =B,,6 | C,6 | _D,6 | ^C,6 | ^D,6 | %462
!ped! !//-!^F,,3/2 =B,,3/2!ped-up!!ped! ^E,,2 F,,!ped-up! | %463
!ped! !//-!^G,,3/2 =B,,3/2!ped-up!!ped! !//-!=A,,3/2 B,,3/2!ped-up! | %464
!ped! !//-!^F,,3/2 =B,,3/2!ped! ^E,,2 F,,!ped-up! | %465
!ped! =A,,2 ^G,,!ped-up!!ped! ^F,,2!ped-up! =F,, |!ped! =D,,3!ped-up!!ped! C,,2 D,,!ped-up! | %467
!ped! !//-!E,,3/2 B,,3/2!ped-up!!ped! !//-!G,,3/2 B,,3/2!ped-up! | %468
!ped! !//-!D,,3/2 B,,3/2!ped-up!!ped! C,,2 D,,!ped-up! | %469
!ped! !//-!E,,3/2 B,,3/2!ped-up!!ped! B,,,/B,,/ z z!ped-up! | %470
!ped! !//-!^D,,3/2 =B,,3/2!ped-up!!ped! ^C,,2 D,,!ped-up! | %471
!ped! !//-!=E,,3/2 =B,,3/2!ped-up!!ped! =B,,,/B,,/ z z!ped-up! | %472
!ped! !//-!^D,,3/2 =B,,3/2!ped-up!!ped! ^C,,2 D,,!ped-up! | %473
!ped! !//-!=E,,3/2 =B,,3/2!ped-up!!ped! =B,,,/=B,,/ z z!ped-up! | %474
!ped! !//-!=E,,3/2 =C,3/2!ped-up!!ped! D,,2 E,,!ped-up! | %475
!ped! !//-!E,,3/2 B,,3/2!ped-up!!ped! !//-!G,,3/2 B,,3/2!ped-up! | %476
!ped! !//-!F,,3/2 _D,3/2!ped-up!!ped! E,,2 F,,!ped-up! | %477
!ped! !//-!_G,,3/2 E,3/2!ped-up!!ped! !//-!A,,3/2 E,3/2!ped-up! || %478
[K:C]!ped! [B,,^F,A,][B,,F,A,][B,,F,A,] !^![B,,F,A,]3!ped-up! | %479
!ped! [^G,,E,^G,][G,,E,G,][G,,E,G,] !^![G,,E,G,]3!ped-up! |!ped! !^![B,,B,]3 [_B,,_B,]2 z!ped-up! | %481
!ped! !^![=B,,=B,]3!ped-up! [_B,,_B,]2 z | %482
!ped! [B,,^F,A,][B,,F,A,][B,,F,A,]!ped-up! !^![B,,F,A,]3 | %483
!ped! [^G,,E,^G,][G,,E,G,][G,,E,G,] !^![G,,E,G,]3!ped-up! |!ped! !^![B,,B,]3 [_B,,_B,]2 z!ped-up! | %485
!ped! !^![=B,,=B,]3!ped-up! [_B,,_B,]2 z || %486
[K:Eb]!ped! [E,,E,][E,,E,][E,,E,]!ped-up! [E,,E,][E,,E,][E,,E,] | %487
!ped! [E,,E,]2 z [E,,B,,]2 z!ped-up! |!ped! [E,,E,][E,,E,][E,,E,] [E,,E,][E,,E,][E,,E,]!ped-up! | %489
!ped! [E,,E,]2 z z2 z!ped-up! |!ped! [E,,E,][E,,E,][E,,E,] [E,,E,][E,,E,][E,,E,]!ped-up! | %491
!ped! [E,,B,,][E,,B,,][E,,B,,] [E,,B,,] z z!ped-up! | %492
!ped! [E,,E,][E,,E,][E,,E,] [E,,E,][E,,E,]!ped-up![E,,E,] | %493
!ped! [E,,B,,][E,,B,,][E,,B,,] [E,,B,,] z z!ped-up! | .A,,.G,,.F,, .=E,,.F,,.D,, | %495
 .A,,.G,,.F,, .=E,,.F,,._D,, | .A,,.G,,.F,, .=E,,.F,,.C,, | .=E,,.F,,._C,, .E,,.F,,.C,, | %498
 z2 z!8vb(! [_C,,,_C,,]2 [_D,,,_D,,] | !wedge![E,,,E,,]2 z [_C,,,_C,,]2 [_D,,,_D,,] | %500
 !wedge![E,,,E,,]2 z [_C,,,_C,,]2 [_D,,,_D,,] | !wedge![E,,,E,,]2 z [_C,,,_C,,]2 [_D,,,_D,,] | %502
 !wedge![E,,,E,,]2 z .[E,,,E,,].[F,,,F,,].[G,,,G,,] | %503
 .[G,,,G,,].[A,,,A,,].[B,,,B,,] .[B,,,B,,].[C,,C,].[D,,D,]!8vb)! | .E,,.F,,.G,, .G,,.A,,.B,, | %505
 .B,,.C,.D, .E, z z |!ped! E,,/D,,/E,,/F,,/G,,/B,,/ E,,/D,,/E,,/F,,/!ped-up!G,,/B,,/ | %507
 E,,/D,,/E,,/F,,/G,,/B,,/ E,,/D,,/E,,/F,,/G,,/B,,/ | %508
!ped! E,,/D,,/E,,/F,,/G,,/_C,/ E,,/D,,/E,,/F,,/G,,/C,/!ped-up! | %509
 E,,/D,,/E,,/F,,/G,,/_C,/ E,,/D,,/E,,/F,,/G,,/C,/ | %510
!ped! E,,/D,,/E,,/F,,/G,,/B,,/ E,,/D,,/E,,/F,,/G,,/B,,/!ped-up! | %511
 E,,/D,,/E,,/F,,/G,,/B,,/ E,,/D,,/E,,/F,,/G,,/B,,/ | %512
!ped! E,,/D,,/E,,/F,,/G,,/_C,/ E,,/D,,/E,,/F,,/G,,/C,/!ped-up! | %513
 E,,/D,,/E,,/F,,/G,,/_C,/ E,,/D,,/E,,/F,,/G,,/C,/ | %514
!ped! E,,/D,,/E,,/F,,/G,,/B,,/ E,,/D,,/E,,/F,,/G,,/B,,/!ped-up! | %515
!ped! E,,/D,,/E,,/F,,/G,,/_C,/ E,,/D,,/E,,/F,,/G,,/C,/!ped-up! | %516
!ped! E,,/D,,/E,,/F,,/G,,/B,,/ E,,/D,,/E,,/F,,/G,,/B,,/!ped-up! | %517
!ped! E,,/D,,/E,,/F,,/G,,/_C,/ E,,/D,,/E,,/F,,/G,,/C,/!ped-up! | %518
!ped! E,,/F,,/E,,/F,,/B,,/=C,/ E,,/F,,/E,,/F,,/A,,/C,/!ped-up! | %519
!ped! E,,/F,,/E,,/F,,/A,,/_D,/ E,,/F,,/E,,/F,,/A,,/D,/!ped-up! | %520
!ped! E,,/F,,/E,,/F,,/B,,/=C,/ E,,/F,,/E,,/F,,/A,,/C,/!ped-up! | %521
!ped! E,,/F,,/E,,/F,,/A,,/_D,/ E,,/F,,/E,,/F,,/A,,/D,/!ped-up! | %522
!ped! E,,/F,,/E,,/F,,/=A,,/^C,/ E,,/F,,/E,,/F,,/A,,/C,/!ped-up! | %523
!ped! E,,/F,,/E,,/F,,/=A,,/=D,/ E,,/F,,/E,,/F,,/A,,/=D,/!ped-up! | %524
!ped! E,,/F,,/E,,/F,,/=A,,/^C,/ E,,/F,,/E,,/F,,/A,,/C,/!ped-up! | %525
!ped! E,,/F,,/E,,/F,,/=A,,/D,/ E,,/F,,/E,,/F,,/A,,/D,/!ped-up! | %526
 !arpeggio![E,,B,,D,] z"_marcatissimo" z!fff! !^![B,,,B,,]3 | !^![_A,,,_A,,]3 !^![F,,,F,,]3 | %528
 !^![E,,,E,,]3 !^![B,,,B,,]3 | !^![A,,,A,,]3 !^![F,,,F,,]3 | !^![E,,,E,,]3 !^![B,,,B,,]3 | %531
 !^![A,,,A,,]3 !^![F,,,F,,]3 | !^![D,,D,]3 !^![B,,,B,,]3 | !^![A,,,A,,]3 !^![F,,,F,,]3 | %534
 [E,,,E,,] z z z2 z | [E,,B,,E,] z z z2 z |!ped! z6!ped-up! | z6 | z2 z !wedge!F,2 z | %539
 !wedge!=B,,2 z !wedge!F,,2 z | =B,,B,,B,,B,,B,,B,, | =B,,B,,B,,B,,B,,B,, | =B,,2 z F,,2 z | %543
 =B,,,2 z [F,,,F,,]2 z | =B,,,2 z [F,,,F,,]2 z | =B,,,2 z [F,,,F,,]2 z | %546
!8vb(!!ped! !//-!=B,,,,3!ped-up! =B,,,3 | !//-!=B,,,,3 =B,,,3 | !//-!=B,,,,3 =B,,,3 | %549
 !//-!=B,,,,3 =B,,,3 | !^![=B,,,,=B,,,]6- | !fermata![B,,,,B,,,]6!8vb)! |] %552
V:7
 x6 | x6 | x6 | x6 | x6 | x6 | x6 | x6 | x6 | x6 | x6 | x6 | x6 | x6 ||[K:E] x6 | x6 | x6 | x6 | %18
 x6 | x6 | x6 | x6 | x6 | x6 | x6 | x6 ||[K:Eb] x6 | x6 | x6 | x6 | x6 | x6 | x6 | x6 | x6 | x6 | %36
 x6 | x6 | x6 | x6 | x6 | x6 |[K:bass] x6 | x6 | x6 | x6 |[K:treble] x6 | x6 | x6 | x6 | x6 | x6 | %52
 x6 | x6 | x6 | x6 | x6 | x6 | x6 | x6 | x6 | x6 | x6 | x6 | x6 | x6 | x6 | x6 | x6 | x6 | x6 | %71
 x6 | x6 | x6 | x6 | x6 | x6 | x6 |[K:bass] x6 | x6 | x6 | x6 |[K:treble] x6 | =EEE _EEE | %84
 DDD ^CCC | =CCC =B,B,B, | x6 | x6 | x6 | x6 | x6 | x6 | x6 | x6 | x6 | x6 | x6 | x6 | x6 | x6 || %100
[K:C] x6 | x6 | x6 | x6 | x6 | x6 | x6 | x6 | x6 | x6 ||[K:Eb] x6 | x6 | x6 | x6 | x6 | A,6 | %116
 B, x x4 | A,6 | x6 | x6 | x6 | x6 |[K:bass] x6 | x6 | x6 | x6 ||[K:C] x6 | x6 | x6 | x6 | x6 | %131
 x6 | x6 | x6 ||[K:E] x6 | x6 | x6 | x6 | x6 | x6 | x6 | x6 |[K:treble] x6 | x6 | x6 | x6 || %146
[M:2/4] x4 | x4 | x4 | x4 | x4 | x4 | x4 | x4 ||[K:C][M:6/8] x6 | x6 | x6 | x6 | x6 | x6 | x6 | %161
 x6 | x6 | x6 | x6 | x6 | x6 | x6 | x6 | x6 | x6 | x6 | x6 | x6 | x6 | x6 | x6 | x6 || x6 | x6 | %180
 x6 | x6 | x6 | x6 | x6 | x6 | x6 | x6 | x6 | x6 | x6 | x6 ||[K:B] x6 | x6 | x6 | x6 | x6 | x6 || %198
[K:C] x6 | x6 | x6 | x6 | x6 | x6 ||[K:B] x6 | x6 | x6 | x6 | x6 | x6 | x6 |[K:bass] x6 | x6 | x6 | %214
 x6 | x6 | x6 | x6 | x6 | x6 | x6 | x6 | x6 | x6 | x6 | x6 | x6 | x6 | x6 | x6 | x6 | x6 | x6 | %233
 x6 |[K:treble] x6 | x6 | x6 | x6 | x6 | x6 | x6 | x6 | x6 | x6 | x6 | x6 | x6 | x6 | x6 | x6 | %250
 x6 | x6 | x6 | x6 | x6 | x6 | x6 | x6 | x6 | x6 | x6 | x6 | x6 | x6 | x6 | x6 | x6 | x6 | x6 | %269
 x6 | x6 | x6 | x6 | x6 | x6 | x6 | x6 | x6 | x6 | x6 | x6 | x6 | x6 | x6 | x6 | x6 | x6 | x6 | %288
 x6 | x6 | x6 | x6 | x6 | x6 | x6 | x6 | x6 | x6 |[K:bass] F,6 | x6 | x6 | x6 | x6 | x6 | x6 | x6 | %306
 F,3 F,3 | =G,6 | F,3 F,3 | =G,6 | x x x[K:treble] D/^^C/D/C/D/C/ | !//-!D3 ^^C3 | !//-!D3 E3 | %313
 D/E/D/E/D/E/ z2 z | B,6 | x6 | x6 | x6 | x6 | x6 | x6 | x6 | B,3 B,3 | =C6 | B,3 B,3 | =C6 | %326
 x x x G/^^F/G/F/G/F/ | !//-!G3 ^^F3 | !//-!G3 A3 | D/G/D/G/D/G/ F x x | x6 | x6 | x6 | x6 | x6 | %335
 x6 | x6 | x6 | x6 | x6 | x6 | x6 |[K:B] x6 | x6 | x6 | x6 ||[K:C] x6 | x6 | x6 | x6 | x6 | x6 | %352
 x6 | x6 | x6 | x6 | x6 | x6 | x6 | x6 | x6 | x6 | x6 | x6 | x6 | x6 | x6 | x6 | x6 | x6 | x6 | %371
 x6 | x6 | x6 | x6 | x6 | x6 | x6 | x6 | x6 | x6 | x6 ||[K:Eb] x6 | x6 | x6 | x6 | x6 | x6 | x6 | %389
 x6 | x6 | x6 | x6 | x6 | x6 | x6 | x6 | x6 | x6 | x6 | x6 | x6 | x6 | x6 | x6 | x6 | x6 | x6 | %408
 x6 | x6 | x6 | x6 | x6 | x6 | x6 | x6 | x6 | x6 | x6 | x6 | x6 | x6 | x6 | x6 | x6 | x6 | x6 | %427
 x6 | x6 | x6 | x6 | x6 | x6 | x6 | x6 | x6 | x6 | x6 |[K:bass] x6 | x6 | x6 | x6 |[K:treble] x6 | %443
 =EEE _EEE | DDD ^CCC | x6 | x6 | x6 | x6 | x6 |[K:bass] x6 | x6 | x6 | x6 | x6 | x6 | x6 | x6 | %458
 x6 | x6 | x6 | x6 | !//-!^F,3/2 =B,3/2 ^E,/B,/E,/B,/F,/B,/ | %463
 !//-!^G,3/2 =B,3/2 !//-!=A,3/2 B,3/2 | !//-!^F,3/2 =B,3/2 ^E,/B,/E,/B,/F,/B,/ | %465
 =A,/=B,/A,/B,/^G,/B,/ ^F,/B,/D,/B,/=F,/B,/ | D,/_B,/D,/B,/D,/B,/ C,/B,/C,/B,/D,/B,/ | x6 | %468
 !//-!D,3/2 B,3/2 C,/B,/C,/B,/D,/B,/ | x6 | ^D,3/2=B,3/2 ^C,/B,/C,/B,/D,/B,/ | x6 | %472
 ^D,3/2=B,3/2 ^C,/B,/C,/B,/D,/B,/ | x6 | !//-!=E,3/2 C3/2 D,/C/D,/C/E,/C/ | x6 | %476
 !//-!F,3/2 _D3/2 E,/D/E,/D/F,/D/ | x6 ||[K:C][K:treble] x6 | x6 | x6 | x6 | x6 | x6 | x6 | x6 || %486
[K:Eb] x6 | x6 | x6 | x6 | x6 | A,3- A, x2 | x6 | A,3- A, x2 |[K:bass] x6 | x6 | x6 | x6 | x6 | %499
 x6 | x6 | x6 | x6 | x6 | x6 | x6 | x6 | x6 | x6 | x6 | x6 | x6 | x6 | x6 | x6 | x6 | x6 | x6 | %518
 x6 | x6 | x6 | x6 | x6 | x6 | x6 | x6 | x6 | x6 | x6 | x6 | x3[K:treble] x3 | x6 | x6 | x6 | x6 | %535
 x6 | x6 | x6 | x6 | x3[K:bass] x3 | x6 | x6 | x6 | x6 | x6 | x6 | x6 | x6 | x6 | x6 | x6 | x6 |] %552
V:8
 x6 | x6 | x6 | x6 | x6 | x6 | x6 | x6 | x6 | x6 | x6 | x6 | x6 | x6 ||[K:E] x6 | x6 | x6 | x6 | %18
 x6 | x6 | x6 | x6 | x6 | x6 | x6 | x6 ||[K:Eb][K:bass] x6 | x6 | x6 | x6 | x6 | x6 | x6 | x6 | %34
 x6 | x6 | x6 | x6 | x6 | x6 | x6 | x6 | x6 | x6 | x6 | x6 | x6 | x6 | x6 | x6 | x6 | x6 | x6 | %53
 x6 | x6 | x6 | x6 | x6 | x6 | x6 | x6 | x6 | x6 | x6 | x6 | x6 | x6 | x6 | x6 | x6 | x6 | x6 | %72
 x6 | x6 | x6 | x6 | x6 | x6 | x6 | x6 | x6 | x6 | x6 | =E,E,E, _E,E,E, | D,D,D, ^C,C,C, | %85
 =C,C,C, =B,,B,,B,, | _B,,B,,B,, =A,,A,,A,, | _A,,A,,A,, G,,G,,G,, | _G,,G,,G,, F,,F,,F,, | %89
 =E,,E,,E,, _E,,E,,E,, | x6 | x6 | x6 | x6 | x6 | x6 | x6 | x6 | x6 | x6 ||[K:C] x6 | x6 | x6 | %103
 x6 | x6 | x6 | x6 | x6 | x6 | x6 ||[K:Eb] x6 | x6 | x6 | x6 | x6 | x6 | x6 | x6 | x6 | x6 | x6 | %121
 x6 | D,,3 C,,2 D,, | E,,3 B,,,2 z | D,,3 C,,2 D,, | E,,3 B,,, x x ||[K:C] ^D,,3 ^C,,2 D,, | %127
 E,,3 B,,,2 z | ^D,,3 ^C,,2 D,, | E,,3 B,,, x x | E,,3 D,,2 E,, | F,,3 G,,3 | F,,3 ^D,,2 ^E,, | %133
 ^F,,3 ^G,,3 ||[K:E] x6 | x6 | x6 | x6 | x6 | x6 | x6 | x6 | x6 | x6 | x6 | x6 ||[M:2/4] x4 | x4 | %148
 x4 | x4 | x4 | x4 | x4 | x4 ||[K:C][M:6/8] x6 | x6 | x6 | x6 | x6 | x6 | x6 | x6 | x6 | x6 | x6 | %165
 x6 | x6 | x5[K:treble] x | x6 | x6 |[K:bass] x6 | x6 | x6 | x6 | x6 | x6 | x6 | x6 || x6 | x6 | %180
 x6 | x6 | x6 | x6 | x6 | x6 | x6 | x6 | x6 | x6 | x6 | x6 ||[K:B] x6 | x6 | x6 | x6 | x6 | x6 || %198
[K:C] x6 | x6 | x6 | x6 | x6 | x6 ||[K:B] x6 | x6 | x6 | x6 | x6 | x6 | x6 | x6 | x6 | x6 | x6 | %215
 x6 | x6 | x6 | x6 | x6 | x6 | x6 | x6 | x6 | x6 | x6 | x6 | x6 | x6 | x6 | x6 | x6 | x6 | x6 | %234
 x6 | x6 | x6 | x6 | x6 | x6 | x6 | x6 | x6 | x6 | x6 | x6 | x6 | x6 | x6 | x6 | x6 | x6 | x6 | %253
 x6 | x6 | x6 | x6 | x6 | x6 | x6 | x6 | x6 | x6 | x6 | x6 | x6 | x6 | x6 | x6 | x6 | x6 | x6 | %272
 x6 | x6 | x6 | x6 | x6 | x6 | x6 | x6 | x6 | x6 | x6 | x6 | x6 | x6 | x6 | x6 | x6 | x6 | x6 | %291
 x6 | x6 | x6 | x6 | x6 | x6 | x6 | x6 | x6 | x6 | x6 | x6 | x6 | x6 | x6 | x6 | x6 | x6 | x6 | %310
 x6 | x6 | x6 | x6 | x6 | x6 | x6 | x6 | x6 | x6 | x6 | x6 | x6 | x6 | x6 | x6 | x6 | x6 | x6 | %329
 x6 | !>!^E,,2 x4 | !>!^E,,2 x4 | !>!=F,,2 x4 | !>!=F,,2 x4 | !>!=D,6 | !>!=A,,3 !>!=F,,3 | %336
 !>!=D,6 | !>!=A,,3 !>!=F,,3 | x6 | x6 | x6 | x6 |[K:B] !>!=D,6 | !>!=A,,3 !>!=F,,3 | !>!=D,6 | %345
 !>!=A,,3 !>!=F,,3 ||[K:C] !>!^F,,2 x4 | !>!^F,,2 x4 | x6 | x6 | !>!_E,6 | !>!_B,,3 !>!_G,,3 | %352
 !>!_E,6 | !>!_B,,3 !>!_G,,3 | !>!^F,,2 x4 | !>!^F,,2 x4 | x6 | x6 | !>!_E,6 | !>!_B,,3 !>!_G,,3 | %360
 !>!_E,6 | !>!_B,,3 !>!_G,,3 | x6 | x6 | x6 | x6 | x6 | x6 | x6 | x6 | x6 | x x x [C,,A,,C,]3 | %372
 !^![_D,,A,,_D,][D,,A,,D,][D,,A,,D,][D,,A,,D,][D,,A,,D,][D,,A,,D,] | %373
 [_D,,A,,_D,] x x [F,,D,F,]2 x | x6 | x x x [C,,A,,C,]3 | %376
 !^![_D,,A,,_D,][D,,A,,D,][D,,A,,D,][D,,A,,D,][D,,A,,D,][D,,A,,D,] | %377
 [_D,,A,,_D,] x x [F,,D,F,]2 x | x2 x [C,,A,,C,]2 x | [_D,,A,,_D,]2 x [F,,D,F,]2 x | %380
 x2 x [C,,A,,C,]2 x | [_D,,_D,]2 x [F,,D,]2 x ||[K:Eb] x6 | x x x [_D,,B,,_D,]3 | %384
 [=D,,B,,=D,][D,,B,,D,][D,,B,,D,][D,,B,,D,][D,,B,,D,][D,,B,,D,] | [D,,B,,D,] x x [_G,,D,]2 x | x6 | %387
 x x x [_D,,B,,_D,]3 | [=D,,B,,=D,][D,,B,,D,][D,,B,,D,][D,,B,,D,][D,,B,,D,][D,,B,,D,] | %389
 [D,,B,,D,] x x [_G,,D,]2 x | x x x [_D,,B,,_D,]2 z | [=D,,_C,=D,] x x [_G,,=D,_G,]2 x | %392
 x x x [_D,,B,,_D,]2 z | [=D,,B,,=D,]2 x [_G,,_C,D,]2 x | x6 | x6 | x6 | x6 | x6 | x6 | x6 | x6 | %402
 x6 | x6 | x6 | x6 | x6 | x6 | x6 | x6 | x6 | x6 | x6 | x6 | x6 | x6 | x6 | x6 | x6 | x6 | x6 | %421
 x6 | x6 | x6 | x6 | x6 | x6 | x6 | x6 | x6 | x6 | x6 | x6 | x6 | x6 | x6 | x6 | x6 | x6 | x6 | %440
 x6 | x6 | x6 | =E,E,E, _E,E,E, | D,D,D, ^C,C,C, | x6 | _B,,B,,B,, =A,,A,,A,, | %447
 _A,,A,,A,, G,,G,,G,, | _G,,G,,G,, F,,F,,F,, | x6 | !^!D,,3 !^!C,,2 !^!D,, | !^!E,,3 !^!B,,,2 z | %452
 !^!D,,3 !^!C,,2 !^!D,, | !^!E,,3 !^!B,,,2 z | !^!^D,,3 !^!^C,,2 !^!D,, | !^!=E,,3 !^!=B,,,2 z | %456
 !^!^D,,3 !^!^C,,2 !^!D,, | !^!=E,,3 !^!=B,,,2 z | !^!=E,,3 !^!D,,2 !^!E,, | !^!F,,3 !^!G,,3 | %460
 !^!F,,3 !^!^D,,2 !^!^E,, | !^!^F,,3 !^!^G,,3 | !//-!^F,,3/2 =B,,3/2 ^E,,/B,,/E,,/B,,/F,,/B,,/ | %463
 !//-!^G,,3/2 =B,,3/2 !//-!=A,,3/2 B,,3/2 | !//-!^F,,3/2 =B,,3/2 ^E,,/B,,/E,,/B,,/F,,/B,,/ | %465
 =A,,/=B,,/A,,/B,,/^G,,/B,,/ ^F,,/B,,/F,,/B,,/=F,,/B,,/ | %466
 D,,/_B,,/D,,/B,,/D,,/B,,/ C,,/B,,/C,,/B,,/D,,/B,,/ | x6 | %468
 !//-!D,,3/2 B,,3/2 C,,/B,,/C,,/B,,/D,,/B,,/ | x6 | %470
 !//-!^D,,3/2 =B,,3/2 ^C,,/B,,/C,,/B,,/D,,/B,,/ | x6 | %472
 !//-!^D,,3/2 =B,,3/2 ^C,,/B,,/C,,/B,,/D,,/B,,/ | x6 | !//-!=E,,3/2 C,3/2 D,,/C,/D,,/C,/E,,/C,/ | %475
 x6 | !//-!F,,3/2 _D,3/2 E,,/D,/E,,/D,/F,,/=D,/ | x6 ||[K:C] x6 | x6 | x6 | x6 | x6 | x6 | x6 | %485
 x6 ||[K:Eb] x6 | x6 | x6 | x6 | x6 | x6 | x6 | x6 | x6 | x6 | x6 | x6 | x3!8vb(! x3 | x6 | x6 | %501
 x6 | x6 | x6!8vb)! | x6 | x6 | x6 | x6 | x6 | x6 | x6 | x6 | x6 | x6 | x6 | x6 | x6 | x6 | x6 | %519
 x6 | x6 | x6 | x6 | x6 | x6 | x6 | x6 | x6 | x6 | x6 | x6 | x6 | x6 | x6 | x6 | x6 | x6 | x6 | %538
 x6 | x6 | x6 | x6 | x6 | x6 | x6 | x6 |!8vb(! x6 | x6 | x6 | x6 | x6 | x6!8vb)! |] %552
V:9
 x6 | x6 | x6 | x6 | x6 | x6 | x6 | x6 | x6 | x6 | x6 | x6 | x6 | x6 ||[K:E] x6 | x6 | x6 | x6 | %18
 x6 | x6 | x6 | x6 | x6 | x6 | x6 | x6 ||[K:Eb][K:bass] x6 | x6 | x6 | x6 | x6 | x6 | x6 | x6 | %34
 x6 | x6 | x6 | x6 | x6 | x6 | x6 | x6 | x6 | x6 | x6 | x6 | x6 | x6 | x6 | x6 | x6 | x6 | x6 | %53
 x6 | x6 | x6 | x6 | x6 | x6 | x6 | x6 | x6 | x6 | x6 | x6 | x6 | x6 | x6 | x6 | x6 | x6 | x6 | %72
 x6 | x6 | x6 | x6 | x6 | x6 | x6 | x6 | x6 | x6 | x6 | x6 | x6 | x6 | x6 | =B,,6 | _B,,2 x4 | x6 | %90
 x6 | x6 | x6 | x6 | x6 | x6 | x6 | x6 | x6 | x6 ||[K:C] x6 | x6 | x6 | x6 | x6 | x6 | x6 | x6 | %108
 x6 | x6 ||[K:Eb] x6 | x6 | x6 | x6 | x6 | x6 | x6 | x6 | x6 | x6 | x6 | x6 | x6 | x6 | x6 | x6 || %126
[K:C] x6 | x6 | x6 | x6 | x6 | x6 | x6 | x6 ||[K:E] x6 | x6 | x6 | x6 | x6 | x6 | x6 | x6 | x6 | %143
 x6 | x6 | x6 ||[M:2/4] x4 | x4 | x4 | x4 | x4 | x4 | x4 | x4 ||[K:C][M:6/8] x6 | x6 | x6 | x6 | %158
 x6 | x6 | x6 | x6 | x6 | x6 | x6 | x6 | x6 | x5[K:treble] x | x6 | x6 |[K:bass] x6 | x6 | x6 | %173
 x6 | x6 | x6 | x6 | x6 || x6 | x6 | x6 | x6 | x6 | x6 | x6 | x6 | x6 | x6 | x6 | x6 | x6 | x6 || %192
[K:B] x6 | x6 | x6 | x6 | x6 | x6 ||[K:C] x6 | x6 | x6 | x6 | x6 | x6 ||[K:B] x6 | x6 | x6 | x6 | %208
 x6 | x6 | x6 | x6 | x6 | x6 | x6 | x6 | x6 | x6 | x6 | x6 | x6 | x6 | x6 | x6 | x6 | x6 | x6 | %227
 x6 | x6 | x6 | x6 | x6 | x6 | x6 | x6 | x6 | x6 | x6 | x6 | x6 | x6 | x6 | x6 | x6 | x6 | x6 | %246
 x6 | x6 | x6 | x6 | x6 | x6 | x6 | x6 | x6 | x6 | x6 | x6 | x6 | x6 | x6 | x6 | x6 | x6 | x6 | %265
 x6 | x6 | x6 | x6 | x6 | x6 | x6 | x6 | x6 | x6 | x6 | x6 | x6 | x6 | x6 | x6 | x6 | x6 | x6 | %284
 x6 | x6 | x6 | x6 | x6 | x6 | x6 | x6 | x6 | x6 | x6 | x6 | x6 | x6 | x6 | x6 | x6 | x6 | %302
 !arpeggio![B,,,B,,]2 z z2 z | x6 | x6 | x6 | x6 | x6 | x6 | x6 | x6 | x6 | x6 | x6 | x6 | x6 | %316
 x6 | x6 | x6 | x6 | x6 | x6 | x6 | x6 | x6 | x6 | x6 | x6 | x6 | x6 | x6 | x6 | x6 | x6 | x6 | %335
 x6 | x6 | x6 | x6 | x6 | x6 | x6 |[K:B] x6 | x6 | x6 | x6 ||[K:C] x6 | x6 | x6 | x6 | x6 | x6 | %352
 x6 | x6 | x6 | x6 | x6 | x6 | x6 | x6 | x6 | x6 | x6 | x6 | x6 | x6 | x6 | x6 | x6 | x6 | x6 | %371
 x6 | x6 | x6 | x6 | x6 | x6 | x6 | x6 | x6 | x6 | x6 ||[K:Eb] x6 | x6 | x6 | x6 | x6 | x6 | x6 | %389
 x6 | x6 | x6 | x6 | x6 | x6 | x6 | x6 | x6 | x6 | x6 | x6 | x6 | x6 | x6 | x6 | x6 | x6 | x6 | %408
 x6 | x6 | x6 | x6 | x6 | x6 | x6 | x6 | x6 | x6 | x6 | x6 | x6 | x6 | x6 | x6 | x6 | x6 | x6 | %427
 x6 | x6 | x6 | x6 | x6 | x6 | x6 | x6 | x6 | x6 | x6 | x6 | x6 | x6 | x6 | x6 | x6 | x6 | x6 | %446
 x6 | =B,,6 | _B,,2 x4 | x6 | x6 | x6 | x6 | x6 | x6 | x6 | x6 | x6 | x6 | x6 | x6 | x6 | x6 | x6 | %464
 x6 | x6 | x6 | x6 | x6 | x6 | x6 | x6 | x6 | x6 | x6 | x6 | x6 | x6 ||[K:C] x6 | x6 | x6 | x6 | %482
 x6 | x6 | x6 | x6 ||[K:Eb] x6 | x6 | x6 | x6 | x6 | x6 | x6 | x6 | x6 | x6 | x6 | x6 | %498
 x3!8vb(! x3 | x6 | x6 | x6 | x6 | x6!8vb)! | x6 | x6 | x6 | x6 | x6 | x6 | x6 | x6 | x6 | x6 | %514
 x6 | x6 | x6 | x6 | x6 | x6 | x6 | x6 | x6 | x6 | x6 | x6 | x6 | x6 | x6 | x6 | x6 | x6 | x6 | %533
 x6 | x6 | x6 | x6 | x6 | x6 | x6 | x6 | x6 | x6 | x6 | x6 | x6 |!8vb(! x6 | x6 | x6 | x6 | x6 | %551
 x6!8vb)! |] %552
V:10
 x6 | x6 | x6 | x6 | x6 | x6 | x6 | x6 | x6 | x6 | x6 | x6 | x6 | x6 ||[K:E] x6 | x6 | x6 | x6 | %18
 x6 | x6 | x6 | x6 | x6 | x6 | x6 | x6 ||[K:Eb] x6 | x6 | x6 | x6 | x6 | x6 | x6 | x6 | x6 | x6 | %36
 x6 | x6 | x6 | x6 | x6 | x6 |[K:bass] x6 | x6 | x6 | x6 |[K:treble] x6 | x6 | x6 | x6 | x6 | x6 | %52
 x6 | x6 | x6 | x6 | x6 | x6 | x6 | x6 | x6 | x6 | x6 | x6 | x6 | x6 | x6 | x6 | x6 | x6 | x6 | %71
 x6 | x6 | x6 | x6 | x6 | x6 | x6 |[K:bass] x6 | x6 | x6 | x6 |[K:treble] x6 | x6 | x6 | x6 | x6 | %87
 x6 | x6 | x6 | x6 | x6 | x6 | x6 | x6 | x6 | x6 | x6 | x6 | x6 ||[K:C] x6 | x6 | x6 | x6 | x6 | %105
 x6 | x6 | x6 | x6 | x6 ||[K:Eb] x6 | x6 | x6 | x6 | x6 | x6 | x6 | x6 | x6 | x6 | x6 | x6 | %122
[K:bass] x6 | x6 | x6 | x6 ||[K:C] x6 | x6 | x6 | x6 | x6 | x6 | x6 | x6 ||[K:E] x6 | x6 | x6 | %137
 x6 | x6 | x6 | x6 | x6 |[K:treble] x6 | x6 | x6 | x6 ||[M:2/4] x4 | x4 | x4 | x4 | x4 | x4 | x4 | %153
 x4 ||[K:C][M:6/8] x6 | x6 | x6 | x6 | x6 | x6 | x6 | x6 | x6 | x6 | x6 | x6 | x6 | x6 | x6 | x6 | %170
 x6 | x6 | x6 | x6 | x6 | x6 | x6 | x6 || x6 | x6 | x6 | x6 | x6 | x6 | x6 | x6 | x6 | x6 | x6 | %189
 x6 | x6 | x6 ||[K:B] x6 | x6 | x6 | x6 | x6 | x6 ||[K:C] x6 | x6 | x6 | x6 | x6 | x6 ||[K:B] x6 | %205
 x6 | x6 | x6 | x6 | x6 | x6 |[K:bass] x6 | x6 | x6 | x6 | x6 | x6 | x6 | x6 | x6 | x6 | x6 | x6 | %223
 x6 | x6 | x6 | x6 | x6 | x6 | x6 | x6 | x6 | x6 | x6 |[K:treble] x6 | x6 | x6 | x6 | x6 | x6 | %240
 x6 | x6 | x6 | x6 | x6 | x6 | x6 | x6 | x6 | x6 | x6 | x6 | x6 | x6 | x6 | x6 | x6 | x6 | x6 | %259
 x6 | x6 | x6 | x6 | x6 | x6 | x6 | x6 | x6 | x6 | x6 | x6 | x6 | x6 | x6 | x6 | x6 | x6 | x6 | %278
 x6 | x6 | x6 | x6 | x6 | x6 | x6 | x6 | x6 | x6 | x6 | x6 | x6 | x6 | x6 | x6 | x6 | x6 | x6 | %297
 x6 |[K:bass] x6 | x6 | x6 | x6 | ^D6 | x6 | x6 | x6 | x6 | x6 | x6 | x6 | x3[K:treble] x3 | x6 | %312
 x6 | x6 | x6 | x6 | x6 | x6 | x6 | x6 | x6 | x6 | x6 | x6 | x6 | x6 | x6 | x6 | x6 | x6 | x6 | %331
 x6 | x6 | x6 | x6 | x6 | x6 | x6 | x6 | x6 | x6 | x6 |[K:B] x6 | x6 | x6 | x6 ||[K:C] x6 | x6 | %348
 x6 | x6 | x6 | x6 | x6 | x6 | x6 | x6 | x6 | x6 | x6 | x6 | x6 | x6 | x6 | x6 | x6 | x6 | x6 | %367
 x6 | x6 | x6 | x6 | x6 | x6 | x6 | x6 | x6 | x6 | x6 | x6 | x6 | x6 | x6 ||[K:Eb] x6 | x6 | x6 | %385
 x6 | x6 | x6 | x6 | x6 | x6 | x6 | x6 | x6 | x6 | x6 | x6 | x6 | x6 | x6 | x6 | x6 | x6 | x6 | %404
 x6 | x6 | x6 | x6 | x6 | x6 | x6 | x6 | x6 | x6 | x6 | x6 | x6 | x6 | x6 | x6 | x6 | x6 | x6 | %423
 x6 | x6 | x6 | x6 | x6 | x6 | x6 | x6 | x6 | x6 | x6 | x6 | x6 | x6 | x6 |[K:bass] x6 | x6 | x6 | %441
 x6 |[K:treble] x6 | x6 | x6 | x6 | x6 | x6 | x6 | x6 |[K:bass] x6 | x6 | x6 | x6 | x6 | x6 | x6 | %457
 x6 | x6 | x6 | x6 | x6 | x6 | x6 | x6 | x6 | x6 | x6 | x6 | x6 | x6 | x6 | x6 | x6 | x6 | x6 | %476
 x6 | x6 ||[K:C][K:treble] x6 | x6 | x6 | x6 | x6 | x6 | x6 | x6 ||[K:Eb] x6 | x6 | x6 | x6 | x6 | %491
 x6 | x6 | x6 |[K:bass] x6 | x6 | x6 | x6 | x6 | x6 | x6 | x6 | x6 | x6 | x6 | x6 | x6 | x6 | x6 | %509
 x6 | x6 | x6 | x6 | x6 | x6 | x6 | x6 | x6 | x6 | x6 | x6 | x6 | x6 | x6 | x6 | x6 | x6 | x6 | %528
 x6 | x6 | x3[K:treble] x3 | x6 | x6 | x6 | x6 | x6 | x6 | x6 | x6 | x3[K:bass] x3 | x6 | x6 | x6 | %543
 x6 | x6 | x6 | x6 | x6 | x6 | x6 | x6 | x6 |] %552
V:11
 x6 | x6 | x6 | x6 | x6 | x6 | x6 | x6 | x6 | x6 | x6 | x6 | x6 | x6 ||[K:E] x6 | x6 | x6 | x6 | %18
 x6 | x6 | x6 | x6 | x6 | x6 | x6 | x6 ||[K:Eb] x6 | x6 | x6 | x6 | x6 | x6 | x6 | x6 | x6 | x6 | %36
 x6 | x6 | x6 | x6 | x6 | x6 |[K:bass] x6 | x6 | x6 | x6 |[K:treble] x6 | x6 | x6 | x6 | x6 | x6 | %52
 x6 | x6 | x6 | x6 | x6 | x6 | x6 | x6 | x6 | x6 | x6 | x6 | x6 | x6 | x6 | x6 | x6 | x6 | x6 | %71
 x6 | x6 | x6 | x6 | x6 | x6 | x6 |[K:bass] x6 | x6 | x6 | x6 |[K:treble] x6 | x6 | x6 | x6 | x6 | %87
 x6 | x6 | x6 | x6 | x6 | x6 | x6 | x6 | x6 | x6 | x6 | x6 | x6 ||[K:C] x6 | x6 | x6 | x6 | x6 | %105
 x6 | x6 | x6 | x6 | x6 ||[K:Eb] x6 | x6 | x6 | x6 | x6 | x6 | x6 | x6 | x6 | x6 | x6 | x6 | %122
[K:bass] x6 | x6 | x6 | x6 ||[K:C] x6 | x6 | x6 | x6 | x6 | x6 | x6 | x6 ||[K:E] x6 | x6 | x6 | %137
 x6 | x6 | x6 | x6 | x6 |[K:treble] x6 | x6 | x6 | x6 ||[M:2/4] x4 | x4 | x4 | x4 | x4 | x4 | x4 | %153
 x4 ||[K:C][M:6/8] x6 | x6 | x6 | x6 | x6 | x6 | x6 | x6 | x6 | x6 | x6 | x6 | x6 | x6 | x6 | x6 | %170
 x6 | x6 | x6 | x6 | x6 | x6 | x6 | x6 || x6 | x6 | x6 | x6 | x6 | x6 | x6 | x6 | x6 | x6 | x6 | %189
 x6 | x6 | x6 ||[K:B] x6 | x6 | x6 | x6 | x6 | x6 ||[K:C] x6 | x6 | x6 | x6 | x6 | x6 ||[K:B] x6 | %205
 x6 | x6 | x6 | x6 | x6 | x6 |[K:bass] x6 | x6 | x6 | x6 | x6 | x6 | x6 | x6 | x6 | x6 | x6 | x6 | %223
 x6 | x6 | x6 | x6 | x6 | x6 | x6 | x6 | x6 | x6 | x6 |[K:treble] x6 | x6 | x6 | x6 | x6 | x6 | %240
 x6 | x6 | x6 | x6 | x6 | x6 | x6 | x6 | x6 | x6 | x6 | x6 | x6 | x6 | x6 | x6 | x6 | x6 | x6 | %259
 x6 | x6 | x6 | x6 | x6 | x6 | x6 | x6 | x6 | x6 | x6 | x6 | x6 | x6 | x6 | x6 | x6 | x6 | x6 | %278
 x6 | x6 | x6 | x6 | x6 | x6 | x6 | x6 | x6 | x6 | x6 | x6 | x6 | x6 | x6 | x6 | x6 | x6 | x6 | %297
 x6 |[K:bass] x6 | x6 | x6 | x6 | !arpeggio!F,6 | x6 | x6 | x6 | x6 | x6 | x6 | x6 | %310
 x3[K:treble] x3 | x6 | x6 | x6 | x6 | x6 | x6 | x6 | x6 | x6 | x6 | x6 | x6 | x6 | x6 | x6 | x6 | %327
 x6 | x6 | x6 | x6 | x6 | x6 | x6 | x6 | x6 | x6 | x6 | x6 | x6 | x6 | x6 |[K:B] x6 | x6 | x6 | %345
 x6 ||[K:C] x6 | x6 | x6 | x6 | x6 | x6 | x6 | x6 | x6 | x6 | x6 | x6 | x6 | x6 | x6 | x6 | x6 | %363
 x6 | x6 | x6 | x6 | x6 | x6 | x6 | x6 | x6 | x6 | x6 | x6 | x6 | x6 | x6 | x6 | x6 | x6 | x6 || %382
[K:Eb] x6 | x6 | x6 | x6 | x6 | x6 | x6 | x6 | x6 | x6 | x6 | x6 | x6 | x6 | x6 | x6 | x6 | x6 | %400
 x6 | x6 | x6 | x6 | x6 | x6 | x6 | x6 | x6 | x6 | x6 | x6 | x6 | x6 | x6 | x6 | x6 | x6 | x6 | %419
 x6 | x6 | x6 | x6 | x6 | x6 | x6 | x6 | x6 | x6 | x6 | x6 | x6 | x6 | x6 | x6 | x6 | x6 | x6 | %438
[K:bass] x6 | x6 | x6 | x6 |[K:treble] x6 | x6 | x6 | x6 | x6 | x6 | x6 | x6 |[K:bass] x6 | x6 | %452
 x6 | x6 | x6 | x6 | x6 | x6 | x6 | x6 | x6 | x6 | x6 | x6 | x6 | x6 | x6 | x6 | x6 | x6 | x6 | %471
 x6 | x6 | x6 | x6 | x6 | x6 | x6 ||[K:C][K:treble] x6 | x6 | x6 | x6 | x6 | x6 | x6 | x6 || %486
[K:Eb] x6 | x6 | x6 | x6 | x6 | x6 | x6 | x6 |[K:bass] x6 | x6 | x6 | x6 | x6 | x6 | x6 | x6 | x6 | %503
 x6 | x6 | x6 | x6 | x6 | x6 | x6 | x6 | x6 | x6 | x6 | x6 | x6 | x6 | x6 | x6 | x6 | x6 | x6 | %522
 x6 | x6 | x6 | x6 | x6 | x6 | x6 | x6 | x3[K:treble] x3 | x6 | x6 | x6 | x6 | x6 | x6 | x6 | x6 | %539
 x3[K:bass] x3 | x6 | x6 | x6 | x6 | x6 | x6 | x6 | x6 | x6 | x6 | x6 | x6 |] %552

